!!!!SEGMENT: pl-cz--iii-692--001-008_volckmer-augustin--miserere-arietta-domine-labia-mea.krn
!!!cenid: 17xx:1155
!!!COM: Volckmer, Augustin
!!!COM-rismID: pe30020656
!!!CDT: 1755-~1820
!!!CNT:
!!!OPR: Miserere
!!!OTL: Arietta - Domine labia mea
!!!OMV: 008
!!!PDT:
!!!AGN: Sacred
!!!YEC: Copyright 2022 Narodowy Instytut Fryderyka Chopina (https://polishscores.org)
!!!YEM: License CC-BY-4.0 (https://creativecommons.org/licenses/by/4.0)
!!!SMS-siglum: PL-CZ
!!!SMS-shelfmark: III-692
!!!SMS-shelfwork: 001-008 M
!!!SMS-variant:
!!!SMS-altvar:
!!!NIFC-rismSourceID: 300001392
!!!NIFC-rismChildID: 300001392
!!!NIFC-islandoraID: pl-cz:40420
!!!URL-pdf-islandora: https://repozytorium.nifc.pl/islandora/object/pl-cz%3A40420/datastream/PDF/view
!!!URL-scan: https://polish.musicsources.pl/pl/lokalizacje/galeria/rekopisy/6989/1 @EN{Scan on Polish Music Sources Website} @PL{Skany w portalu Dziedzictwo Muzyki Polskiej w otwartym dostępie}
!!!IIIF:
!!!ONB-nifc: UWAGA: części Miserere: 1. Miserere, 2. Recitativo – Amplius lava me, 3. Aria – Quoniam, 4. Aria – Asperges me, 5. Averte faciem tuam, 6. Cor mundum, 7. Duetto – Docebo iniquos, 8. Arietta – Domine labia mea, 9. Recitativo – Quoniam si voluisses, 10. Aria – Sacrificium Deo, 11. Gloria Patri, 12. Sicut erat
!!!AIN: 1 alto 1 bass 2 cor 2 oboe 1 organ 1 soprn 1 tenor 1 viola 2 violn
!!!key: B-
**kern	**fba	**dynam	**kern	**dynam	**kern	**dynam	**kern	**dynam	**kern	**kern	**text	**kern	**kern	**kern	**kern	**kern	**kern
*	*	*	*group4	*	*group4	*	*group4	*	*group3	*group3	*	*group3	*group3	*group2	*group2	*group1	*group1
*part12	*	*	*part11	*	*part10	*	*part9	*	*part8	*part7	*	*part6	*part5	*part4	*part3	*part2	*part1
*staff12	*	*	*staff11	*	*staff10	*	*staff9	*	*staff8	*staff7	*	*staff6	*staff5	*staff4	*staff3	*staff2	*staff1
*I"Organo.	*	*	*I"Viola obl=	*	*I"Violino Secondo.	*	*I"Violino Primo	*	*I"Basſo	*I"Tenore	*	*I"Alto.	*I"Canto	*I"Cornu Secondo in Dis	*I"Cornu Primo. in Dis	*I"Oboa Seconda	*I"Oboa Prima .
*I'org	*	*	*I'vla obl	*	*I'vl 2	*	*I'vl 1	*	*I'B	*I'T	*	*I'A	*I'S	*I'cor 2	*I'cor 1	*I'ob 2	*I'ob 1
*Iorgan	*	*	*Iviola	*	*Ivioln	*	*Ivioln	*	*Ibass	*Itenor	*	*Ialto	*Isoprn	*Icor	*Icor	*Ioboe	*Ioboe
*ICklav	*	*	*ICstr	*	*ICstr	*	*ICstr	*	*ICvox	*ICvox	*	*ICvox	*ICvox	*ICbras	*ICbras	*ICww	*ICww
*IGcont	*	*	*	*	*	*	*	*	*IGcoro	*IGcoro	*	*IGcoro	*IGcoro	*	*	*	*
*clefF4	*	*	*clefC3	*	*clefG2	*	*clefG2	*	*clefF4	*clefC4	*	*clefC3	*clefC1	*clefG2	*clefG2	*clefG2	*clefG2
*	*	*	*	*	*	*	*	*	*	*	*	*	*	*ITrd5c9	*ITrd5c9	*	*
*k[b-e-]	*	*	*k[b-e-]	*	*k[b-e-]	*	*k[b-e-]	*	*k[b-e-]	*k[b-e-]	*	*k[b-e-]	*k[b-e-]	*k[b-e-]	*k[b-e-]	*k[b-e-]	*k[b-e-]
*B-:	*	*	*B-:	*	*B-:	*	*B-:	*	*B-:	*B-:	*	*B-:	*B-:	*B-:	*B-:	*B-:	*B-:
*M3/8	*	*	*M3/8	*	*M3/8	*	*M3/8	*	*M3/8	*M3/8	*	*M3/8	*M3/8	*M3/8	*M3/8	*M3/8	*M3/8
=1	=1	=1	=1	=1	=1	=1	=1	=1	=1	=1	=1	=1	=1	=1	=1	=1	=1
!LO:TX:t=P:problem:mixed beam	!	!	!	!	!	!	!	!	!	!	!	!	!	!	!	!	!
!LO:TX:b:t=Arietta	!	!	!	!	!	!	!LO:TX:a:t=Vivace Allegretto	!	!	!	!	!	!	!	!	!	!
!LO:TX:a:t=Vivace	!	!	!LO:TX:a:t=Vivace	!	!LO:TX:a:t=Vivace	!	!LO:TX:b:t=Arietta	!	!LO:TX:a:t=Recitat et Aria Tacet&colon;	!LO:TX:a:t=Vivace	!	!LO:TX:a:t=71 Pausen	!LO:TX:a:t=Aria Tenore et Alto Solo Tacet.	!	!	!LO:TX:a:t=Aria et Recitat Tacet	!LO:TX:a:t=Aria et Recitativ Tacet
8B-\L	.	.	(16B-/LL	.	(16d/LL	.	8b-\L|	.	4.ryy	1.r	.	4.r	4.ryy	4.ryy	4.ryy	4.ryy	4.ryy
.	.	.	16d/)	.	16f/)	.	.	.	.	.	.	.	.	.	.	.	.
8BB-/J	.	.	(16B-/	.	(16d/	.	8dd\|	.	.	.	.	.	.	.	.	.	.
.	.	.	16d/)	.	16f/)	.	.	.	.	.	.	.	.	.	.	.	.
8r	.	.	(16B-/	.	(16d/	.	(16ff\L	.	.	.	.	.	.	.	.	.	.
.	.	.	16d/JJ)	.	16f/JJ)	.	16gg\JJ)	.	.	.	.	.	.	.	.	.	.
=2	=2	=2	=2	=2	=2	=2	=2	=2	=2	=2	=2	=2	=2	=2	=2	=2	=2
!LO:TX:t=P:problem:mixed beam	!	!	!	!	!	!	!	!	!	!	!	!	!	!	!	!	!
8F\L	.	.	16A/LL	.	(16c/LL	.	(16ff\LL	.	4.ryy	.	.	4.r	4.ryy	4.ryy	4.ryy	4.ryy	4.ryy
.	.	.	16c/	.	16f/)	.	16ee-\JJ)	.	.	.	.	.	.	.	.	.	.
8AA/	.	.	16A/	.	(16c/	.	8.ee-\L	.	.	.	.	.	.	.	.	.	.
.	.	.	16c/	.	16f/)	.	.	.	.	.	.	.	.	.	.	.	.
8BB-/J	.	.	16B-/	.	(16d/	.	.	.	.	.	.	.	.	.	.	.	.
.	.	.	16d/JJ	.	16f/JJ)	.	16dd\Jk	.	.	.	.	.	.	.	.	.	.
=3	=3	=3	=3	=3	=3	=3	=3	=3	=3	=3	=3	=3	=3	=3	=3	=3	=3
!LO:TX:t=P:problem:mixed beam	!	!	!	!	!	!	!	!	!	!	!	!	!	!	!	!	!
8E-\L	.	.	(16c\LL	.	(16e-/LL	.	(16dd\LL	.	4.ryy	.	.	4.r	4.ryy	4.ryy	4.ryy	4.ryy	4.ryy
.	.	.	16e-\)	.	16g/)	.	16cc\)	.	.	.	.	.	.	.	.	.	.
8F\	.	.	(16c\	.	(16e-/	.	(16ee-\	.	.	.	.	.	.	.	.	.	.
.	.	.	16e-\)	.	16g/)	.	16cc\	.	.	.	.	.	.	.	.	.	.
8FF/J	.	.	(16c\	.	16d/	.	16b-\)	.	.	.	.	.	.	.	.	.	.
.	.	.	16e-\JJ)	.	16c/JJ	.	16a\JJ	.	.	.	.	.	.	.	.	.	.
=4	=4	=4	=4	=4	=4	=4	=4	=4	=4	=4	=4	=4	=4	=4	=4	=4	=4
!LO:TX:t=P:problem:mixed beam	!	!	!	!	!	!	!	!	!	!	!	!	!	!	!	!	!
8BB-/L	.	.	(16B-/LL	.	(16d/LL	.	16b-\LL	.	4.ryy	.	.	4.r	4.ryy	4.ryy	4.ryy	4.ryy	4.ryy
.	.	.	16d/)	.	16f/)	.	16dd\JJ	.	.	.	.	.	.	.	.	.	.
8B-\J	.	.	(16B-/	.	(16d/	.	8b-/L	.	.	.	.	.	.	.	.	.	.
.	.	.	16d/)	.	16f/)	.	.	.	.	.	.	.	.	.	.	.	.
8r	.	.	(16B-/	.	(16d/	.	8f/J	.	.	.	.	.	.	.	.	.	.
.	.	.	16d/JJ)	.	16f/JJ)	.	.	.	.	.	.	.	.	.	.	.	.
!	!	!	!LO:LB:g=original	!	!	!	!	!	!	!	!	!	!	!	!	!	!
=5	=5	=5	=5	=5	=5	=5	=5	=5	=5	=5	=5	=5	=5	=5	=5	=5	=5
!LO:TX:t=P:problem:mixed beam	!	!	!	!	!	!	!	!	!	!	!	!	!	!	!	!	!
8B-\L	.	.	(16B-/LL	.	(16d/LL	.	8b-\L|	.	4.ryy	2.r	.	4.r	4.ryy	4.ryy	4.ryy	4.ryy	4.ryy
.	.	.	16d/)	.	16f/)	.	.	.	.	.	.	.	.	.	.	.	.
8BB-/J	.	.	(16B-/	.	(16d/	.	8dd\|	.	.	.	.	.	.	.	.	.	.
.	.	.	16d/)	.	16f/)	.	.	.	.	.	.	.	.	.	.	.	.
8r	.	.	(16B-/	.	(16d/	.	(16ff\L	.	.	.	.	.	.	.	.	.	.
.	.	.	16d/JJ)	.	16f/JJ)	.	16gg\JJ)	.	.	.	.	.	.	.	.	.	.
!	!	!	!	!	!	!	!LO:LB:g=original	!	!	!	!	!	!	!	!	!	!
=6	=6	=6	=6	=6	=6	=6	=6	=6	=6	=6	=6	=6	=6	=6	=6	=6	=6
!LO:TX:t=P:problem:mixed beam	!	!	!	!	!	!	!	!	!	!	!	!	!	!	!	!	!
8F\L	.	.	(16A/LL	.	(16c/LL	.	(16ff\LL	.	4.ryy	.	.	4.r	4.ryy	4.ryy	4.ryy	4.ryy	4.ryy
.	.	.	16c/)	.	16f/)	.	16ee-\JJ)	.	.	.	.	.	.	.	.	.	.
8AA/	.	.	(16A/	.	(16c/	.	8.ee-\L	.	.	.	.	.	.	.	.	.	.
.	.	.	16c/)	.	16f/)	.	.	.	.	.	.	.	.	.	.	.	.
8BB-/J	.	.	(16B-/	.	(16d/	.	.	.	.	.	.	.	.	.	.	.	.
.	.	.	16d/JJ)	.	16f/JJ)	.	16dd\Jk	.	.	.	.	.	.	.	.	.	.
=7	=7	=7	=7	=7	=7	=7	=7	=7	=7	=7	=7	=7	=7	=7	=7	=7	=7
!LO:TX:t=P:problem:mixed beam	!	!	!	!	!	!	!	!	!	!	!	!	!	!	!	!	!
8E-\L	.	.	(16c\LL	.	(16e-/LL	.	(16dd\LL	.	4.ryy	4.r	.	4.r	4.ryy	4.ryy	4.ryy	4.ryy	4.ryy
.	.	.	16e-\)	.	16g/)	.	16cc\)	.	.	.	.	.	.	.	.	.	.
8F\	.	.	(16c\	.	(16e-/	.	(16ee-\	.	.	.	.	.	.	.	.	.	.
.	.	.	16e-\)	.	16g/)JJ	.	16cc\	.	.	.	.	.	.	.	.	.	.
!	!	!	!	!	!LO:LB:g=original	!	!	!	!	!	!	!	!	!	!	!	!
8FF/J	.	.	16f\	.	(16d/LL	.	16b-\	.	.	.	.	.	.	.	.	.	.
.	.	.	16f\JJ	.	16c/JJ)	.	16a\JJ)	.	.	.	.	.	.	.	.	.	.
=8	=8	=8	=8	=8	=8	=8	=8	=8	=8	=8	=8	=8	=8	=8	=8	=8	=8
.	.	.	.	.	.	.	16qqa/LL	.	.	.	.	.	.	.	.	.	.
.	.	.	.	.	.	.	16qqcc/JJ	.	.	.	.	.	.	.	.	.	.
!LO:TX:t=P:problem:mixed beam	!	!	!	!	!	!	!	!	!	!	!	!	!	!	!	!	!
8BB-/L	.	.	8f\	.	8d/	.	8b-\	.	4.ryy	8r	.	4.r	4.ryy	4.ryy	4.ryy	4.ryy	4.ryy
!	!	!	!	!	!	!	!	!LO:DY:a:t=pp&colon;	!	!	!	!	!	!	!	!	!
8B-\J	.	.	8r	.	8r	.	8r	pp	.	8r	.	.	.	.	.	.	.
8r	.	.	8r	.	8r	.	8f/	.	.	(8F/	Do-	.	.	.	.	.	.
!LO:LB:g=original	!	!	!	!	!	!	!	!	!	!	!	!	!	!	!	!	!
=9	=9	=9	=9	=9	=9	=9	=9	=9	=9	=9	=9	=9	=9	=9	=9	=9	=9
*	*	*	*	*below	*	*below	*	*	*	*	*	*	*	*	*	*	*
!LO:TX:t=P:problem:mixed beam	!	!	!	!	!	!LO:DY:rj	!	!	!	!	!	!	!	!	!	!	!
8B-\L	.	pp	(16B-/LL	pp	(16d/LL	pp	8b-\L	.	4.ryy	8B-\L	.	4.r	4.ryy	4.ryy	4.ryy	4.ryy	4.ryy
.	.	.	16d/)	.	16f/)	.	.	.	.	.	.	.	.	.	.	.	.
8BB-/J	.	.	(16B-/	.	(16d/	.	8dd\	.	.	8d\J)	.	.	.	.	.	.	.
.	.	.	16d/)	.	16f/)	.	.	.	.	.	.	.	.	.	.	.	.
8r	.	.	(16B-/	.	(16d/	.	16ff\L	.	.	16f\	-mi-	.	.	.	.	.	.
.	.	.	16d/JJ)	.	16f/JJ)	.	16gg\JJ	.	.	16g\	-ne	.	.	.	.	.	.
=10	=10	=10	=10	=10	=10	=10	=10	=10	=10	=10	=10	=10	=10	=10	=10	=10	=10
8C/L	.	.	(16A/LL	.	(16c/LL	.	16ff\LL	.	4.ryy	16f\LL	la-	4.r	4.ryy	4.ryy	4.ryy	4.ryy	4.ryy
.	.	.	16c/)	.	16f/)	.	16ee-\JJ	.	.	16e-\JJ	.	.	.	.	.	.	.
8AA/	.	.	(16A/	.	(16c/	.	8.ee-\L	.	.	8.e-\	.	.	.	.	.	.	.
.	.	.	16c/)	.	16f/)	.	.	.	.	.	.	.	.	.	.	.	.
8BB-/J	.	.	(16B-/	.	(16d/	.	.	.	.	.	.	.	.	.	.	.	.
.	.	.	16d/JJ)	.	16f/JJ)	.	16dd\Jk	.	.	16d\	.	.	.	.	.	.	.
=11	=11	=11	=11	=11	=11	=11	=11	=11	=11	=11	=11	=11	=11	=11	=11	=11	=11
!LO:TX:t=P:problem:mixed beam	!	!	!	!	!	!	!	!	!	!	!	!	!	!	!	!	!
8E-\L	.	.	(16c\LL	.	(16e-/LL	.	(16dd\LL	.	4.ryy	16d\LL	.	4.r	4.ryy	4.ryy	4.ryy	4.ryy	4.ryy
.	.	.	16e-\)	.	16g/)	.	16cc\)	.	.	16c\	.	.	.	.	.	.	.
8F\	.	.	(16c\	.	(16e-/	.	(16ee-\	.	.	16e-\	.	.	.	.	.	.	.
.	.	.	16e-\)	.	16g/)	.	16cc\	.	.	16c\JJ	.	.	.	.	.	.	.
8FF/J	.	.	(16c\	.	(16d/	.	16b-\	.	.	16B-\	-bi-	.	.	.	.	.	.
.	.	.	16e-\JJ)	.	16c/JJ)	.	16a\JJ)	.	.	16A\	-a	.	.	.	.	.	.
=12	=12	=12	=12-	=12	=12	=12	=12	=12	=12	=12	=12	=12	=12	=12	=12	=12	=12
8BB-/L	.	.	(16B-/LL	.	(16d/LL	.	16b-\LL	.	4.ryy	16B-\LL	me-	4.r	4.ryy	4.ryy	4.ryy	4.ryy	4.ryy
.	.	.	16d/)	.	16f/)	.	16dd\JJ	.	.	16d\JJ	.	.	.	.	.	.	.
!	!	!	!	!	!	!	!LO:TX:t=P:problem:mixed beam	!	!	!	!	!	!	!	!	!	!
8BB-/J	.	.	(16B-/	.	(16d/	.	8b-\L	.	.	8B-\	.	.	.	.	.	.	.
.	.	.	16d/)	.	16f/)	.	.	.	.	.	.	.	.	.	.	.	.
8r	.	.	(16B-/	.	(16d/	.	8f/J	.	.	8F/	-a	.	.	.	.	.	.
.	.	.	16d/JJ)	.	16f/JJ)	.	.	.	.	.	.	.	.	.	.	.	.
!	!	!	!	!	!	!	!	!	!	!LO:PB:g=original	!	!	!	!	!	!	!
=13	=13	=13	=13	=13	=13	=13	=13	=13	=13	=13	=13	=13	=13	=13	=13	=13	=13
!LO:TX:t=P:problem:mixed beam	!	!	!	!	!	!	!	!	!	!	!	!	!	!	!	!	!
8B-\L	.	.	(16B-/LL	.	(16d/LL	.	8b-\L	.	4.ryy	(8B-\L	la-	4.r	4.ryy	4.ryy	4.ryy	4.ryy	4.ryy
.	.	.	16d/)	.	16f/)	.	.	.	.	.	.	.	.	.	.	.	.
8BB-/J	.	.	(16B-/	.	(16d/	.	8dd\	.	.	8d\J)	.	.	.	.	.	.	.
.	.	.	16d/)	.	16f/)	.	.	.	.	.	.	.	.	.	.	.	.
8r	.	.	(16B-/	.	(16d/	.	16ff\L	.	.	16f\	-bi-	.	.	.	.	.	.
.	.	.	16d/JJ)	.	16f/JJ)	.	16gg\JJ	.	.	16g\	-a	.	.	.	.	.	.
=14	=14	=14	=14	=14	=14	=14	=14	=14	=14	=14	=14	=14	=14	=14	=14	=14	=14
!	!	!	!LO:TX:t=P:problem:brak taktu	!	!	!	!	!	!	!	!	!	!	!	!	!	!
8C/L	.	.	4.ryy	.	(16c/LL	.	16ff\LL	.	4.ryy	16f\LL	me-	4.r	4.ryy	4.ryy	4.ryy	4.ryy	4.ryy
.	.	.	.	.	16e-/)	.	16ee-\JJ	.	.	16e-\JJ	.	.	.	.	.	.	.
8AA/	.	.	.	.	(16c/	.	8.ee-\L	.	.	8.e-\L	-a	.	.	.	.	.	.
.	.	.	.	.	16e-/)	.	.	.	.	.	.	.	.	.	.	.	.
8BB-/J	.	.	.	.	(16d/	.	.	.	.	.	.	.	.	.	.	.	.
.	.	.	.	.	16f/JJ)	.	16dd\Jk	.	.	16d\Jk	.	.	.	.	.	.	.
=15	=15	=15	=15	=15	=15	=15	=15	=15	=15	=15	=15	=15	=15	=15	=15	=15	=15
!LO:TX:t=P:problem:mixed beam	!	!	!	!	!LO:N:vis=16	!	!	!	!	!	!	!	!	!	!	!	!
8BB-/L	.	.	8c\L	.	8e-/L	.	(16dd\LL	.	4.ryy	16d\LL	a-	4.r	4.ryy	4.ryy	4.ryy	4.ryy	4.ryy
.	.	.	.	.	.	.	16cc\)	.	.	16c\JJ	.	.	.	.	.	.	.
8E-\	.	.	8e-\	.	16g/L	.	(16ee-\	.	.	16e-\LL	-pe-	.	.	.	.	.	.
.	.	.	.	.	16f/	.	16dd\	.	.	16d\JJ	.	.	.	.	.	.	.
8C\J	.	.	8en\J	.	16e-/	.	16cc\	.	.	16c\LL	-ri-	.	.	.	.	.	.
.	.	.	.	.	16d/JJ	.	16b-\JJ)	.	.	16B-\JJ	.	.	.	.	.	.	.
!	!	!	!LO:LB:g=original	!	!	!	!	!	!	!	!	!	!	!	!	!	!
=16	=16	=16	=16	=16	=16	=16	=16	=16	=16	=16	=16	=16	=16	=16	=16	=16	=16
.	.	.	.	.	.	.	8qqcc/	.	.	8qqB-/	.	.	.	.	.	.	.
!LO:TX:t=P:problem:mixed beam	!	!	!	!	!	!	!	!	!	!	!	!	!	!	!	!	!
8F\L	.	.	8f\	.	8c/	.	8b-\	.	4.ryy	8A\	-es	4.r	4.ryy	4.ryy	4.ryy	4.ryy	4.ryy
8FF/J	.	.	16r	.	16r	.	8r	.	.	8r	.	.	.	.	.	.	.
.	.	.	16f\LL	.	16a/LL	.	.	.	.	.	.	.	.	.	.	.	.
*	*	*	*	*	*	*	*Xtuplet	*	*	*	*	*	*	*	*	*	*
8r	.	.	16f\	.	16a/	.	24cc\LL|	.	.	8c\	et	.	.	.	.	.	.
.	.	.	.	.	.	.	24cc\|	.	.	.	.	.	.	.	.	.	.
.	.	.	16f\JJ	.	16a/JJ	.	.	.	.	.	.	.	.	.	.	.	.
.	.	.	.	.	.	.	24cc\JJ|	.	.	.	.	.	.	.	.	.	.
=17	=17	=17	=17	=17	=17	=17	=17	=17	=17	=17	=17	=17	=17	=17	=17	=17	=17
!LO:TX:t=P:problem:mixed beam	!	!	!	!	!	!	!LO:TX:t=t&colon;	!	!	!	!	!	!	!	!	!	!
8F\L	.	.	8f\L	.	4a/	.	8cc\L	.	4.ryy	8c\L	osſ	4.r	4.ryy	4.ryy	4.ryy	4.ryy	4.ryy
8FF/J	.	.	8f\	.	.	.	16dd\L	.	.	16d\L	.	.	.	.	.	.	.
.	.	.	.	.	.	.	16een\JJ	.	.	16en\JJ	.	.	.	.	.	.	.
!	!	!	!	!	!	!	!	!	!	!LO:TUP:a:problem:klamra łukowa	!	!	!	!	!	!	!
.	.	.	.	.	.	.	16qqgg/	.	.	.	.	.	.	.	.	.	.
*	*	*	*	*	*Xtuplet	*	*tuplet	*	*	*	*	*	*	*	*	*	*
!	!	!	!	!	!	!	!LO:TUP:a:problem:klamra łukowa	!	!	!	!	!	!	!	!	!	!
8r	.	.	8f\J	.	24dd\LL	.	24ff\LL	.	.	24f\LL	.	.	.	.	.	.	.
.	.	.	.	.	24cc\	.	24ee\	.	.	24e\	.	.	.	.	.	.	.
.	.	.	.	.	24b-\JJ	.	24dd\JJ	.	.	24d\JJ	.	.	.	.	.	.	.
!	!	!	!	!	!	!	!LO:LB:g=original	!	!	!	!	!	!	!	!	!	!
=18	=18	=18	=18	=18	=18	=18	=18	=18	=18	=18	=18	=18	=18	=18	=18	=18	=18
!LO:TX:t=P:problem:mixed beam	!	!	!	!	!	!	!	!	!	!	!	!	!	!	!	!	!
8F\L	.	.	[8f\L	.	(8b-/L	.	(8dd\L	.	4.ryy	8d\	me-	4.r	4.ryy	4.ryy	4.ryy	4.ryy	4.ryy
8FF/J	.	.	16f\L]	.	16a/L)	.	16cc\L)	.	.	8c\	-um	.	.	.	.	.	.
.	.	.	16f'\	.	16a/|	.	16cc\|	.	.	.	.	.	.	.	.	.	.
8r	.	.	16f'\	.	16a/|	.	16cc\|	.	.	16r	.	.	.	.	.	.	.
.	.	.	16f'\JJ	.	16a/JJ|	.	16cc\JJ|	.	.	16c\	a-	.	.	.	.	.	.
!	!	!	!	!	!LO:LB:g=original	!	!	!	!	!	!	!	!	!	!	!	!
=19	=19	=19	=19	=19	=19	=19	=19	=19	=19	=19	=19	=19	=19	=19	=19	=19	=19
8F\	.	.	8f\L	.	8a/L	.	8cc\L	.	4.ryy	8c\L	-nu-	4.r	4.ryy	4.ryy	4.ryy	4.ryy	4.ryy
8r	.	.	8a\	.	8f/	.	16aa\L	.	.	16a\L	.	.	.	.	.	.	.
.	.	.	.	.	.	.	(16ff\	.	.	16f\JJ	.	.	.	.	.	.	.
8F\	.	.	8f\J	.	16a/L	.	16cc\	.	.	16c\LL	-ti-	.	.	.	.	.	.
.	.	.	.	.	16f/JJ	.	16a\JJ)	.	.	16A\JJ	.	.	.	.	.	.	.
=20	=20	=20	=20	=20	=20	=20	=20	=20	=20	=20	=20	=20	=20	=20	=20	=20	=20
!LO:TX:t=P:problem:mixed beam	!	!	!	!	!	!	!	!	!	!	!	!	!	!	!	!	!
8C/L	.	.	8en\L	.	16a/LL	.	16cc\LL	.	4.ryy	16c\LL	-a-	4.r	4.ryy	4.ryy	4.ryy	4.ryy	4.ryy
.	.	.	.	.	16g/J	.	16b-\J	.	.	16B-\JJ	.	.	.	.	.	.	.
8F\J	.	.	8f\J	.	8f/J	.	8a\J	.	.	8A\	-bit	.	.	.	.	.	.
!	!	!	!	!	!	!	!	!	!	!LO:LB:g=original	!	!	!	!	!	!	!
8r	.	.	8r	.	8r	.	16r	.	.	16r	.	.	.	.	.	.	.
.	.	.	.	.	.	.	16cc\	.	.	16c\	lau-	.	.	.	.	.	.
=21	=21	=21	=21	=21	=21	=21	=21	=21	=21	=21	=21	=21	=21	=21	=21	=21	=21
*	*	*	*	*	*	*	*	*	*	*Xtuplet	*	*	*	*	*	*	*
!LO:TX:t=P:problem:mixed beam	!	!	!	!	!	!	!LO:TUP:a:problem:klamra łukowa	!	!	!	!	!	!	!	!	!	!
8BB-/L	.	.	(16B-/LL	.	(16d/LL	.	24dd\LL	.	4.ryy	24d\LL	.	4.r	4.ryy	4.ryy	4.ryy	4.ryy	4.ryy
.	.	.	.	.	.	.	24ee-X\	.	.	24e-X\	.	.	.	.	.	.	.
.	.	.	16d/)	.	16f/)	.	.	.	.	.	.	.	.	.	.	.	.
.	.	.	.	.	.	.	24dd\JJ	.	.	24d\JJ	.	.	.	.	.	.	.
8B-\J	.	.	(16B-/	.	(16d/	.	8b-\	.	.	8B-\	-dem	.	.	.	.	.	.
.	.	.	16d/)	.	16f/)	.	.	.	.	.	.	.	.	.	.	.	.
8r	.	.	(16B-/	.	(16d/	.	16r	.	.	16r	.	.	.	.	.	.	.
.	.	.	16d/JJ)	.	16f/JJ)	.	16dd\	.	.	16d\	lau-	.	.	.	.	.	.
=22	=22	=22	=22	=22	=22	=22	=22	=22	=22	=22	=22	=22	=22	=22	=22	=22	=22
*	*	*	*	*	*	*	*	*	*	*tuplet	*	*	*	*	*	*	*
!LO:TX:t=P:problem:mixed beam	!	!	!	!	!	!	!	!	!	!LO:TUP:a:problem:klamra łukowa	!	!	!	!	!	!	!
8B-\L	.	.	(16B-/LL	.	(16d/LL	.	(16ff\LL	.	4.ryy	24f\LL	.	4.r	4.ryy	4.ryy	4.ryy	4.ryy	4.ryy
.	.	.	.	.	.	.	.	.	.	24g\	.	.	.	.	.	.	.
.	.	.	16d/)	.	16f/)	.	16dd\)	.	.	.	.	.	.	.	.	.	.
.	.	.	.	.	.	.	.	.	.	24f\JJ	.	.	.	.	.	.	.
!	!	!	!	!	!	!	!	!	!	!LO:TUP:a:problem:klamra łukowa	!	!	!	!	!	!	!
8BB-/	.	.	(16B-/	.	(16d/	.	(16ff\	.	.	24d\LL	.	.	.	.	.	.	.
.	.	.	.	.	.	.	.	.	.	24e-X\	.	.	.	.	.	.	.
.	.	.	16d/)	.	16f/)	.	16dd\)	.	.	.	.	.	.	.	.	.	.
.	.	.	.	.	.	.	.	.	.	24d\JJ	.	.	.	.	.	.	.
!	!	!	!	!	!	!	!	!	!	!LO:TUP:a:problem:klamra łukowa	!	!	!	!	!	!	!
8B-\J	.	.	(16B-/	.	(16d/	.	(16ff\	.	.	24B-\LL	.	.	.	.	.	.	.
.	.	.	.	.	.	.	.	.	.	24c\	.	.	.	.	.	.	.
.	.	.	16d/JJ)	.	16f/JJ)	.	16dd\JJ)	.	.	.	.	.	.	.	.	.	.
.	.	.	.	.	.	.	.	.	.	24B-\JJ	.	.	.	.	.	.	.
=23	=23	=23	=23	=23	=23	=23	=23	=23	=23	=23	=23	=23	=23	=23	=23	=23	=23
!LO:TX:t=P:problem:mixed beam	!	!	!	!	!	!	!LO:TUP:a:problem:klamra łukowa	!	!	!LO:TUP:a:problem:klamra łukowa	!	!	!	!	!	!	!
8F\L	.	.	(16A/LL	.	(16c/LL	.	24cc\LL	.	4.ryy	24c\LL	.	4.r	4.ryy	4.ryy	4.ryy	4.ryy	4.ryy
.	.	.	.	.	.	.	24dd\	.	.	24d\	.	.	.	.	.	.	.
.	.	.	16c/)	.	16f/)	.	.	.	.	.	.	.	.	.	.	.	.
.	.	.	.	.	.	.	24cc\JJ	.	.	24c\JJ	.	.	.	.	.	.	.
8FF/J	.	.	(16A/	.	(16c/	.	8a\	.	.	8A\	-dem	.	.	.	.	.	.
.	.	.	16c/)	.	16f/)	.	.	.	.	.	.	.	.	.	.	.	.
8r	.	.	(16A/	.	(16c/	.	16r	.	.	16r	.	.	.	.	.	.	.
.	.	.	16c/JJ)	.	16f/JJ)	.	16cc\	.	.	16c\	lau-	.	.	.	.	.	.
=24	=24	=24	=24	=24	=24	=24	=24	=24	=24	=24	=24	=24	=24	=24	=24	=24	=24
!LO:TX:t=P:problem:mixed beam	!	!	!	!	!	!	!	!	!	!LO:TUP:a:problem:klamra łukowa	!	!	!	!	!	!	!
8F\L	.	.	(16A/LL	.	(16c/LL	.	(16ff\LL	.	4.ryy	24f\LL	.	4.r	4.ryy	4.ryy	4.ryy	4.ryy	4.ryy
.	.	.	.	.	.	.	.	.	.	24g\	.	.	.	.	.	.	.
.	.	.	16c/)	.	16f/)	.	16cc\)	.	.	.	.	.	.	.	.	.	.
.	.	.	.	.	.	.	.	.	.	24f\JJ	.	.	.	.	.	.	.
!	!	!	!	!	!	!	!	!	!	!LO:TUP:a:problem:klamra łukowa	!	!	!	!	!	!	!
8FF/	.	.	(16A/	.	(16c/	.	(16ff\	.	.	24c\LL	.	.	.	.	.	.	.
.	.	.	.	.	.	.	.	.	.	24d\	.	.	.	.	.	.	.
.	.	.	16c/)	.	16f/)	.	16cc\)	.	.	.	.	.	.	.	.	.	.
.	.	.	.	.	.	.	.	.	.	24c\JJ	.	.	.	.	.	.	.
!	!	!	!	!	!	!	!	!	!	!LO:TUP:a:problem:klamra łukowa	!	!	!	!	!	!	!
8F\J	.	.	(16A/	.	(16c/	.	(16ff\	.	.	24A\LL	.	.	.	.	.	.	.
.	.	.	.	.	.	.	.	.	.	24B-\	.	.	.	.	.	.	.
.	.	.	16c/JJ)	.	16f/JJ)	.	16cc\JJ)	.	.	.	.	.	.	.	.	.	.
.	.	.	.	.	.	.	.	.	.	24A\JJ	.	.	.	.	.	.	.
!LO:LB:g=original	!	!	!	!	!	!	!	!	!	!	!	!	!	!	!	!	!
=25	=25	=25	=25	=25	=25	=25	=25	=25	=25	=25	=25	=25	=25	=25	=25	=25	=25
!LO:TX:t=P:problem:mixed beam	!	!	!	!	!	!	!LO:TUP:a:problem:klamra łukowa	!	!	!LO:TUP:a:problem:klamra łukowa	!	!	!	!	!	!	!
8c\L	.	.	(16G/LL	.	(16en/LL	.	24b-\LL	.	4.ryy	24B-\LL	.	4.r	4.ryy	4.ryy	4.ryy	4.ryy	4.ryy
.	.	.	.	.	.	.	24cc\	.	.	24c\	.	.	.	.	.	.	.
.	.	.	16c/)	.	16g/)	.	.	.	.	.	.	.	.	.	.	.	.
.	.	.	.	.	.	.	24b-\JJ	.	.	24B-\JJ	.	.	.	.	.	.	.
8C/J	n	.	(16G/	.	(16e/	.	8g/	.	.	8G/	-dem	.	.	.	.	.	.
.	.	.	16c/)	.	16g/)	.	.	.	.	.	.	.	.	.	.	.	.
8r	.	.	(16G/	.	(16e/	.	16r	.	.	16r	.	.	.	.	.	.	.
.	.	.	16c/JJ)	.	16g/JJ)	.	16b-\	.	.	16B-\	lau-	.	.	.	.	.	.
!	!	!	!LO:LB:g=original	!	!	!	!	!	!	!	!	!	!	!	!	!	!
=26	=26	=26	=26	=26	=26	=26	=26	=26	=26	=26	=26	=26	=26	=26	=26	=26	=26
!LO:TX:t=P:problem:mixed beam	!	!	!	!	!	!	!	!	!	!LO:TUP:a:problem:klamra łukowa	!	!	!	!	!	!	!
8C/L	.	.	(16G/LL	.	(16e-/LL	.	(16gg\LL	.	4.ryy	24g\LL	.	4.r	4.ryy	4.ryy	4.ryy	4.ryy	4.ryy
.	.	.	.	.	.	.	.	.	.	24a\	.	.	.	.	.	.	.
.	.	.	16c/)	.	16g/)	.	16b-\)	.	.	.	.	.	.	.	.	.	.
.	.	.	.	.	.	.	.	.	.	24g\JJ	.	.	.	.	.	.	.
!	!	!	!	!	!	!	!	!	!	!LO:TUP:a:problem:klamra łukowa	!	!	!	!	!	!	!
8c\	.	.	(16G/	.	(16e-/	.	(16gg\	.	.	24en\LL	.	.	.	.	.	.	.
.	.	.	.	.	.	.	.	.	.	24f\	.	.	.	.	.	.	.
.	.	.	16c/)	.	16g/)	.	16b-\)	.	.	.	.	.	.	.	.	.	.
.	.	.	.	.	.	.	.	.	.	24e\JJ	.	.	.	.	.	.	.
!	!	!	!	!	!	!	!	!	!	!LO:LB:g=original	!	!	!	!	!	!	!
!	!	!	!	!	!	!	!	!	!	!LO:TUP:a:problem:klamra łukowa	!	!	!	!	!	!	!
8C/J	.	.	(16G/	.	(16e-/	.	(16gg\	.	.	24B-\LL	.	.	.	.	.	.	.
.	.	.	.	.	.	.	.	.	.	24c\	.	.	.	.	.	.	.
.	.	.	16c/JJ)	.	16g/JJ)	.	16b-\JJ)	.	.	.	.	.	.	.	.	.	.
.	.	.	.	.	.	.	.	.	.	24B-\JJ	.	.	.	.	.	.	.
=27	=27	=27	=27	=27	=27	=27	=27	=27	=27	=27	=27	=27	=27	=27	=27	=27	=27
8F\	.	.	16c\KL	.	8f/L	.	16a\KL	.	4.ryy	(16A\LL	.	4.r	4.ryy	4.ryy	4.ryy	4.ryy	4.ryy
.	.	.	8c\	.	.	.	8b-\	.	.	16B-\)	.	.	.	.	.	.	.
8r	.	.	.	.	8g/	.	.	.	.	(16B-\	.	.	.	.	.	.	.
.	.	.	8c\	.	.	.	8cc\	.	.	16c\JJ)	.	.	.	.	.	.	.
8F\	.	.	.	.	8a/J	.	.	.	.	(16c\LL	.	.	.	.	.	.	.
.	.	.	16c\Jk	.	.	.	16dd\Jk	.	.	16d\JJ)	.	.	.	.	.	.	.
!	!	!	!	!	!	!	!LO:LB:g=original	!	!	!	!	!	!	!	!	!	!
=28	=28	=28	=28	=28	=28	=28	=28	=28	=28	=28	=28	=28	=28	=28	=28	=28	=28
8B-\L	.	.	16c\KL	.	8b-/L	.	16dd\KL	.	4.ryy	16d\LL	.	4.r	4.ryy	4.ryy	4.ryy	4.ryy	4.ryy
.	.	.	8c\	.	.	.	8een\	.	.	16en\	.	.	.	.	.	.	.
8G\	.	.	.	.	8g/	.	.	.	.	16e\	.	.	.	.	.	.	.
.	.	.	16c\K	.	.	.	8ff\	.	.	16f\JJ	.	.	.	.	.	.	.
8A\J	.	.	8c\J	.	8a/J	.	.	.	.	8f\	-dem	.	.	.	.	.	.
.	.	.	.	.	.	.	16ff\Jk	.	.	.	.	.	.	.	.	.	.
=29	=29	=29	=29	=29	=29	=29	=29	=29	=29	=29	=29	=29	=29	=29	=29	=29	=29
.	.	.	.	.	.	.	8qqee-/	.	.	8qqe-/	.	.	.	.	.	.	.
!LO:TX:t=P:problem:mixed beam	!	!	!LO:TX:t=P:problem:mixed beam	!	!	!	!	!	!	!LO:TUP:a:problem:klamra łukowa	!	!	!	!	!	!	!
8B-\L	.	.	16c\LL	.	24b-/LL	.	24dd\LL	.	4.ryy	24d\LL	tu-	4.r	4.ryy	4.ryy	4.ryy	4.ryy	4.ryy
.	.	.	.	.	24a/	.	24cc\	.	.	24c\	.	.	.	.	.	.	.
.	.	.	16e-\J	.	.	.	.	.	.	.	.	.	.	.	.	.	.
.	.	.	.	.	24g/JJ	.	24b-\JJ	.	.	24B-\JJ	.	.	.	.	.	.	.
8c\	.	.	8d\	.	8f/L	.	8a/L	.	.	8A/L	.	.	.	.	.	.	.
8C/J	.	.	8D/J	.	8e-/J	.	8g/J	.	.	8G/J	.	.	.	.	.	.	.
!	!	!	!	!	!LO:LB:g=original	!	!	!	!	!	!	!	!	!	!	!	!
=30	=30	=30	=30	=30	=30	=30	=30	=30	=30	=30	=30	=30	=30	=30	=30	=30	=30
*	*	*	*Xtuplet	*	*	*	*	*	*	*	*	*	*	*	*	*	*
!	!	!	!	!	!	!	!LO:TUP:a:problem:klamra łukowa	!	!	!	!	!	!	!	!	!	!
!	!	!LO:DY:t=fort	!LO:TX:t=P:problem:mixed beam	!LO:DY:t=ffort	!LO:TX:t=P:problem:mixed beam	!LO:DY:t=ffort	!LO:TX:t=P:problem:mixed beam	!LO:DY:b:t=for&colon;	!	!	!	!	!	!	!	!	!
8F\L	.	f	24F/LL	ff	24f/LL	ff	24f/LL	f	4.ryy	8F/	-am	4.r	4.ryy	4.ryy	4.ryy	4.ryy	4.ryy
.	.	.	24a\	.	24aa\	.	24aa\	.	.	.	.	.	.	.	.	.	.
.	.	.	24g\JJ	.	24gg\JJ	.	24gg\JJ	.	.	.	.	.	.	.	.	.	.
!	!	!	!	!	!	!	!LO:TUP:a:problem:klamra łukowa	!	!	!	!	!	!	!	!	!	!
8A\	.	.	24f\LL	.	24ff\LL	.	24ff\LL	.	.	8r	.	.	.	.	.	.	.
.	.	.	24e-\	.	24ee-\	.	24ee-\	.	.	.	.	.	.	.	.	.	.
.	.	.	24d\JJ	.	24dd\JJ	.	24dd\JJ	.	.	.	.	.	.	.	.	.	.
!	!	!	!	!	!	!	!LO:TUP:a:problem:klamra łukowa	!	!	!	!	!	!	!	!	!	!
8F\J	.	.	24c\LL	.	24cc\LL	.	24cc\LL	.	.	8r	.	.	.	.	.	.	.
.	.	.	24B-\	.	24b-\	.	24b-\	.	.	.	.	.	.	.	.	.	.
.	.	.	24A\JJ	.	24a\JJ	.	24a\JJ	.	.	.	.	.	.	.	.	.	.
=31	=31	=31	=31	=31	=31	=31	=31	=31	=31	=31	=31	=31	=31	=31	=31	=31	=31
!LO:TX:t=P:problem:mixed beam	!	!	!	!	!	!	!LO:TUP:a:problem:klamra łukowa	!	!	!LO:TX:a:t=9	!	!	!	!	!	!	!
8B-\L	.	.	24d\LL	.	24dd\LL	.	24dd\LL	.	4.ryy	1.r	.	4.r	4.ryy	4.ryy	4.ryy	4.ryy	4.ryy
.	.	.	24d\	.	24dd\	.	24dd\	.	.	.	.	.	.	.	.	.	.
.	.	.	24d\JJ	.	24dd\JJ	.	24dd\JJ	.	.	.	.	.	.	.	.	.	.
*	*	*	*	*	*	*	*tremolo	*	*	*	*	*	*	*	*	*	*
!	!	!	!	!	!	!	!LO:TUP:a:problem:klamra łukowa	!	!	!	!	!	!	!	!	!	!
!	!	!	!	!	!	!	!LO:TX:a:t=P:problem:złe wyświetlanie wartości rytmicznej tremolo we wszystkich triolach	!	!	!	!	!	!	!	!	!	!
!	!	!	!	!	!	!	!LO:N:TREM:vis=4	!	!	!	!	!	!	!	!	!	!
8BB-/J	.	.	24d\LL	.	24dd\LL	.	24dd\L	.	.	.	.	.	.	.	.	.	.
.	.	.	24d\	.	24dd\	.	24dd\	.	.	.	.	.	.	.	.	.	.
.	.	.	24d\JJ	.	24dd\JJ	.	24dd\J	.	.	.	.	.	.	.	.	.	.
!	!	!	!	!	!	!	!LO:TUP:a:problem:klamra łukowa	!	!	!	!	!	!	!	!	!	!
!	!	!	!	!	!	!	!LO:N:TREM:vis=4	!	!	!	!	!	!	!	!	!	!
8r	.	.	24d\LL	.	24dd\LL	.	24dd\L	.	.	.	.	.	.	.	.	.	.
.	.	.	24d\	.	24dd\	.	24dd\	.	.	.	.	.	.	.	.	.	.
.	.	.	24d\JJ	.	24dd\JJ	.	24dd\J	.	.	.	.	.	.	.	.	.	.
*	*	*	*	*	*	*	*Xtremolo	*	*	*	*	*	*	*	*	*	*
=32	=32	=32	=32	=32	=32	=32	=32	=32	=32	=32	=32	=32	=32	=32	=32	=32	=32
!	!	!	!	!	!	!	!LO:TUP:a:problem:klamra łukowa	!	!	!	!	!	!	!	!	!	!
8BB-/L	.	.	24d\LL	.	24dd\LL	.	24dd\LL	.	4.ryy	.	.	4.r	4.ryy	4.ryy	4.ryy	4.ryy	4.ryy
.	.	.	24f\	.	24ff\	.	24ff\	.	.	.	.	.	.	.	.	.	.
.	.	.	24e-\JJ	.	24ee-\JJ	.	24ee-\JJ	.	.	.	.	.	.	.	.	.	.
!	!	!	!	!	!	!	!LO:TUP:a:problem:klamra łukowa	!	!	!	!	!	!	!	!	!	!
8D/	.	.	24d\LL	.	24dd\LL	.	24dd\LL	.	.	.	.	.	.	.	.	.	.
.	.	.	24c\	.	24cc\	.	24cc\	.	.	.	.	.	.	.	.	.	.
.	.	.	24B-\JJ	.	24b-\JJ	.	24b-\JJ	.	.	.	.	.	.	.	.	.	.
!	!	!	!	!	!	!	!LO:TUP:b:problem:klamra łukowa	!	!	!	!	!	!	!	!	!	!
8BB-/J	.	.	24A/LL	.	24a/LL	.	24a/LL	.	.	.	.	.	.	.	.	.	.
.	.	.	24G/	.	24g/	.	24g/	.	.	.	.	.	.	.	.	.	.
.	.	.	24F/JJ	.	24f/JJ	.	24f/JJ	.	.	.	.	.	.	.	.	.	.
=33	=33	=33	=33	=33	=33	=33	=33	=33	=33	=33	=33	=33	=33	=33	=33	=33	=33
*	*	*	*	*	*	*	*tremolo	*	*	*	*	*	*	*	*	*	*
!	!	!	!	!	!	!	!LO:N:TREM:vis=4	!	!	!	!	!	!	!	!	!	!
!LO:TX:t=P:problem:mixed beam	!	!	!	!	!	!	!LO:TUP:a:problem:klamra łukowa	!	!	!	!	!	!	!	!	!	!
8G\L	.	.	24B-/LL	.	24b-\LL	.	24b-\L	.	4.ryy	.	.	4.r	4.ryy	4.ryy	4.ryy	4.ryy	4.ryy
.	.	.	24B-/	.	24b-\	.	24b-\	.	.	.	.	.	.	.	.	.	.
.	.	.	24B-/JJ	.	24b-\JJ	.	24b-\J	.	.	.	.	.	.	.	.	.	.
!	!	!	!	!	!	!	!LO:TUP:a:problem:klamra łukowa	!	!	!	!	!	!	!	!	!	!
!	!	!	!	!	!	!	!LO:N:TREM:vis=4	!	!	!	!	!	!	!	!	!	!
8GG/J	.	.	24B-/LL	.	24b-\LL	.	24b-\L	.	.	.	.	.	.	.	.	.	.
.	.	.	24B-/	.	24b-\	.	24b-\	.	.	.	.	.	.	.	.	.	.
.	.	.	24B-/JJ	.	24b-\JJ	.	24b-\J	.	.	.	.	.	.	.	.	.	.
!	!	!	!	!	!	!	!LO:TUP:a:problem:klamra łukowa	!	!	!	!	!	!	!	!	!	!
!	!	!	!	!	!	!	!LO:N:TREM:vis=4	!	!	!	!	!	!	!	!	!	!
8r	.	.	24B-/LL	.	24b-\LL	.	24b-\L	.	.	.	.	.	.	.	.	.	.
.	.	.	24B-/	.	24b-\	.	24b-\	.	.	.	.	.	.	.	.	.	.
.	.	.	24B-/JJ	.	24b-\JJ	.	24b-\J	.	.	.	.	.	.	.	.	.	.
*	*	*	*	*	*	*	*Xtremolo	*	*	*	*	*	*	*	*	*	*
=34	=34	=34	=34	=34	=34	=34	=34	=34	=34	=34	=34	=34	=34	=34	=34	=34	=34
!	!	!	!	!	!	!	!LO:TUP:a:problem:klamra łukowa	!	!	!	!	!	!	!	!	!	!
8GG/L	.	.	24B-\LL	.	24b-\LL	.	24b-\LL	.	4.ryy	.	.	4.r	4.ryy	4.ryy	4.ryy	4.ryy	4.ryy
.	.	.	24d\	.	24dd\	.	24dd\	.	.	.	.	.	.	.	.	.	.
.	.	.	24c\JJ	.	24cc\JJ	.	24cc\JJ	.	.	.	.	.	.	.	.	.	.
!	!	!	!	!	!	!	!LO:TUP:a:problem:klamra łukowa	!	!	!	!	!	!	!	!	!	!
8BB-/	.	.	24B-/LL	.	24b-/LL	.	24b-\LL	.	.	.	.	.	.	.	.	.	.
.	.	.	24A/	.	24a/	.	24a\	.	.	.	.	.	.	.	.	.	.
.	.	.	24G/JJ	.	24g/JJ	.	24g\JJ	.	.	.	.	.	.	.	.	.	.
!	!	!	!	!	!	!	!LO:TUP:b:problem:klamra łukowa	!	!	!	!	!	!	!	!	!	!
8BBn/J	.	.	24F/LL	.	24f/LL	.	24f/LL	.	.	.	.	.	.	.	.	.	.
.	.	.	24E-/	.	24e-/	.	24e-/	.	.	.	.	.	.	.	.	.	.
.	.	.	24D/JJ	.	24d/JJ	.	24d/JJ	.	.	.	.	.	.	.	.	.	.
!	!	!	!LO:LB:g=original	!	!	!	!	!	!	!	!	!	!	!	!	!	!
=35	=35	=35	=35	=35	=35	=35	=35	=35	=35	=35	=35	=35	=35	=35	=35	=35	=35
*	*	*	*	*	*	*	*Xtuplet	*	*	*	*	*	*	*	*	*	*
!	!	!	!LO:TX:t=P:problem:mixed beam	!	!LO:TX:t=P:problem:mixed beam	!	!LO:TX:t=P:problem:mixed beam	!	!	!	!	!	!	!	!	!	!
8C/L	.	.	24C/LL	.	24c/LL	.	24c/LL	.	4.ryy	1.r	.	4.r	4.ryy	4.ryy	4.ryy	4.ryy	4.ryy
.	.	.	24c\	.	24cc\	.	24cc\	.	.	.	.	.	.	.	.	.	.
.	.	.	24c\JJ	.	24cc\JJ	.	24cc\JJ	.	.	.	.	.	.	.	.	.	.
*	*	*	*	*	*	*	*tuplet	*	*	*	*	*	*	*	*	*	*
!	!	!	!	!	!	!	!LO:TUP:a:problem:klamra łukowa	!	!	!	!	!	!	!	!	!	!
8r	.	.	24c\LL	.	24cc\LL	.	24cc\LL	.	.	.	.	.	.	.	.	.	.
.	.	.	24e-\	.	24ee-\	.	24ee-\	.	.	.	.	.	.	.	.	.	.
.	.	.	24e-\JJ	.	24ee-\JJ	.	24ee-\JJ	.	.	.	.	.	.	.	.	.	.
*	*	*	*	*	*	*	*Xtuplet	*	*	*	*	*	*	*	*	*	*
8C/J	.	.	24e-\LL	.	24ee-\LL	.	24ee-\LL	.	.	.	.	.	.	.	.	.	.
.	.	.	24g\	.	24gg\	.	24gg\	.	.	.	.	.	.	.	.	.	.
.	.	.	24g\JJ	.	24gg\JJ	.	24gg\JJ	.	.	.	.	.	.	.	.	.	.
=36	=36	=36	=36	=36	=36	=36	=36	=36	=36	=36	=36	=36	=36	=36	=36	=36	=36
8G\L	.	.	24b-\LL	.	24bb-\LL	.	24bb-\LL	.	4.ryy	.	.	4.r	4.ryy	4.ryy	4.ryy	4.ryy	4.ryy
.	.	.	24a\	.	24aa\	.	24aa\	.	.	.	.	.	.	.	.	.	.
.	.	.	24g\JJ	.	24gg\JJ	.	24gg\JJ	.	.	.	.	.	.	.	.	.	.
8E-\	.	.	24f\LL	.	24ff\LL	.	24ff\LL	.	.	.	.	.	.	.	.	.	.
.	.	.	24e-\	.	24ee-\	.	24ee-\	.	.	.	.	.	.	.	.	.	.
.	.	.	24d\JJ	.	24dd\JJ	.	24dd\JJ	.	.	.	.	.	.	.	.	.	.
8C\J	.	.	24c\LL	.	24cc\LL	.	24cc\LL	.	.	.	.	.	.	.	.	.	.
.	.	.	24B-\	.	24b-\	.	24b-\	.	.	.	.	.	.	.	.	.	.
.	.	.	24A\JJ	.	24a\JJ	.	24a\JJ	.	.	.	.	.	.	.	.	.	.
!	!	!	!	!	!	!	!LO:LB:g=original	!	!	!	!	!	!	!	!	!	!
=37	=37	=37	=37	=37	=37	=37	=37	=37	=37	=37	=37	=37	=37	=37	=37	=37	=37
!LO:TX:t=P:problem:mixed beam	!	!	!	!	!	!	!	!	!	!	!	!	!	!	!	!	!
8BB-/L	.	.	24d\LL	.	24b-\LL	.	24dd\LL	.	4.ryy	.	.	4.r	4.ryy	4.ryy	4.ryy	4.ryy	4.ryy
.	.	.	24c\	.	24a\	.	24cc\	.	.	.	.	.	.	.	.	.	.
.	.	.	24B-\JJ	.	24g\JJ	.	24b-\JJ	.	.	.	.	.	.	.	.	.	.
!	!	!	!	!	!LO:LB:g=original	!	!	!	!	!	!	!	!	!	!	!	!
8C/	.	.	8c\L	.	8f/L	.	8a/L	.	.	.	.	.	.	.	.	.	.
8c\J	.	.	8c\J	.	8e-/J	.	8g/J	.	.	.	.	.	.	.	.	.	.
=38	=38	=38	=38	=38	=38	=38	=38	=38	=38	=38	=38	=38	=38	=38	=38	=38	=38
8F\	.	.	24f\LL	.	24f/LL	.	24ff\LL	.	4.ryy	.	.	4.r	4.ryy	4.ryy	4.ryy	4.ryy	4.ryy
.	.	.	24a\	.	24a/	.	24aa\	.	.	.	.	.	.	.	.	.	.
.	.	.	24g\JJ	.	24a/JJ	.	24gg\JJ	.	.	.	.	.	.	.	.	.	.
8r	.	.	24f\LL	.	24a/LL	.	24ff\LL	.	.	.	.	.	.	.	.	.	.
.	.	.	24e-\	.	24a/	.	24ee-\	.	.	.	.	.	.	.	.	.	.
.	.	.	24d\JJ	.	24a/JJ	.	24dd\JJ	.	.	.	.	.	.	.	.	.	.
8F\	.	.	24c\LL	.	24a/LL	.	24cc\LL	.	.	.	.	.	.	.	.	.	.
.	.	.	24B-\	.	24g/	.	24b-\	.	.	.	.	.	.	.	.	.	.
.	.	.	24A\JJ	.	24f/JJ	.	24a\JJ	.	.	.	.	.	.	.	.	.	.
!LO:LB:g=original	!	!	!	!	!	!	!	!	!	!	!	!	!	!	!	!	!
=39	=39	=39	=39	=39	=39	=39	=39	=39	=39	=39	=39	=39	=39	=39	=39	=39	=39
!LO:TX:t=P:problem:mixed beam	!	!	!	!	!	!	!	!	!	!	!	!	!	!	!	!	!
8B-\L	.	.	24B-/LL	.	24b-/LL	.	24dd\LL	.	4.ryy	4.r	.	4.r	4.ryy	4.ryy	4.ryy	4.ryy	4.ryy
.	.	.	24c/	.	24a/	.	24cc\	.	.	.	.	.	.	.	.	.	.
.	.	.	24d/JJ	.	24g/JJ	.	24b-\JJ	.	.	.	.	.	.	.	.	.	.
8c\	.	.	8c\L	.	8f/L	.	8a/L	.	.	.	.	.	.	.	.	.	.
8C/J	.	.	8c\J	.	8c/J	.	8g/J	.	.	.	.	.	.	.	.	.	.
=40	=40	=40	=40	=40	=40	=40	=40	=40	=40	=40	=40	=40	=40	=40	=40	=40	=40
!LO:TX:t=P:problem:mixed beam	!	!	!	!	!	!	!	!	!	!	!	!	!	!	!	!	!
8F\L	.	.	8c\	.	8A/	.	8f/	.	4.ryy	8r	.	4.r	4.ryy	4.ryy	4.ryy	4.ryy	4.ryy
8FF/J	.	.	8r	.	8r	.	8r	.	.	8r	.	.	.	.	.	.	.
!	!	!	!LO:TX:b:t=Volti	!	!	!	!	!LO:DY:a:t=pp&colon;	!	!	!	!	!	!	!	!	!
8r	.	.	8r	.	8r	.	8c/	pp	.	8C/	Do-	.	.	.	.	.	.
!	!	!	!LO:PB:g=original	!	!	!	!	!	!	!	!	!	!	!	!	!	!
=41	=41	=41	=41	=41	=41	=41	=41	=41	=41	=41	=41	=41	=41	=41	=41	=41	=41
!LO:TX:t=P:problem:mixed beam	!	!	!	!	!	!LO:DY:rj	!	!	!	!	!	!	!	!	!	!	!
8F\L	.	pp	(16A/LL	pp	(16f/LL	pp	8f/L|	.	4.ryy	8F/L	.	4.r	4.ryy	4.ryy	4.ryy	4.ryy	4.ryy
.	.	.	16c/)	.	16a/)	.	.	.	.	.	.	.	.	.	.	.	.
8FF/	.	.	(16A/	.	(16f/	.	8a/J|	.	.	8A/J	.	.	.	.	.	.	.
.	.	.	16c/)	.	16a/)	.	.	.	.	.	.	.	.	.	.	.	.
8A\J	.	.	(16A/	.	(16f/	.	(16cc\LL	.	.	16c\	-mi-	.	.	.	.	.	.
.	.	.	16c/JJ)	.	16a/JJ)	.	16dd\JJ)	.	.	16d\	-ne	.	.	.	.	.	.
=42	=42	=42	=42	=42	=42	=42	=42	=42	=42	=42	=42	=42	=42	=42	=42	=42	=42
!LO:TX:t=P:problem:mixed beam	!	!	!	!	!	!	!	!	!	!	!	!	!	!	!	!	!
8G\L	.	.	(16G/LL	.	(16e-/LL	.	(16cc\LL	.	4.ryy	16c\LL	la-	4.r	4.ryy	4.ryy	4.ryy	4.ryy	4.ryy
.	.	.	16c/)	.	16g/)	.	16b-\JJ)	.	.	16B-\JJ	.	.	.	.	.	.	.
!	!	!	!	!	!	!	!LO:TX:t=t&colon;	!	!	!	!	!	!	!	!	!	!
8C/	.	.	(16G/	.	(16e-/	.	8.b-\L	.	.	8.B-\L	.	.	.	.	.	.	.
.	.	.	16c/)	.	16g/)	.	.	.	.	.	.	.	.	.	.	.	.
8F\J	.	.	16F/	.	(16f/	.	.	.	.	.	.	.	.	.	.	.	.
.	.	.	16c/JJ	.	16a/JJ)	.	16a\Jk	.	.	16A\Jk	.	.	.	.	.	.	.
=43	=43	=43	=43	=43	=43	=43	=43	=43	=43	=43	=43	=43	=43	=43	=43	=43	=43
!LO:TX:t=P:problem:mixed beam	!	!	!	!	!	!	!	!	!	!	!	!	!	!	!	!	!
8BB-/L	.	.	(16B-\LL	.	(16g/LL	.	(16a/LL	.	4.ryy	16A/LL	.	4.r	4.ryy	4.ryy	4.ryy	4.ryy	4.ryy
.	.	.	16d\)	.	16B-/)	.	16g/)	.	.	16G/	.	.	.	.	.	.	.
8C/	.	.	(16B-\	.	16d/	.	(16b-/	.	.	16B-/	.	.	.	.	.	.	.
.	.	.	16d\)	.	16B-/	.	16g/	.	.	16G/JJ	.	.	.	.	.	.	.
8c\J	.	.	16c\	.	16A/	.	16f/	.	.	16F/LL	-bi-	.	.	.	.	.	.
.	.	.	16c\JJ	.	16G/JJ	.	16e-/JJ)	.	.	16E-/JJ	.	.	.	.	.	.	.
!	!	!	!	!	!	!	!	!	!	!LO:LB:g=original	!	!	!	!	!	!	!
=44	=44	=44	=44	=44	=44	=44	=44	=44	=44	=44	=44	=44	=44	=44	=44	=44	=44
!t	!	!LO:DY:t=fort	!	!	!	!	!	!	!	!	!	!	!	!	!	!	!
16.F\LL	.	f	16.f\LL|	f	8A/	.	8f/	.	4.ryy	8F/	-a	4.r	4.ryy	4.ryy	4.ryy	4.ryy	4.ryy
32G\K	.	.	(32g\K	.	.	.	.	.	.	.	.	.	.	.	.	.	.
16F\	.	.	16f\	.	8r	f	8r	.	.	8r	.	.	.	.	.	.	.
!	!	!	!	!	!	!	!	!LO:DY:a:t=f&colon;	!	!	!	!	!	!	!	!	!
16E-X\	.	.	16e-X\	.	.	.	.	f	.	.	.	.	.	.	.	.	.
16D\	.	.	16d\	.	8f/	.	8f/	.	.	8F/	la-	.	.	.	.	.	.
16C\JJ	.	.	16c\JJ)	.	.	.	.	.	.	.	.	.	.	.	.	.	.
=45	=45	=45	=45	=45	=45	=45	=45	=45	=45	=45	=45	=45	=45	=45	=45	=45	=45
!LO:TX:t=P:problem:mixed beam	!	!	!	!LO:DY:rj	!	!	!	!	!	!	!	!	!	!	!	!	!
8BB-/L	.	.	(16B-\LL	p	(16d/LL	.	8b-\L	.	4.ryy	8B-\L	.	4.r	4.ryy	4.ryy	4.ryy	4.ryy	4.ryy
.	.	.	16d\)	.	16f/)	.	.	.	.	.	.	.	.	.	.	.	.
8B-\	.	.	(16B-\	.	(16d/	.	8dd\	.	.	8d\J	.	.	.	.	.	.	.
.	.	.	16d\)	.	16f/)	.	.	.	.	.	.	.	.	.	.	.	.
!	!	!	!	!	!	!	!	!LO:DY:b:t=p&colon;	!	!	!	!	!	!	!	!	!
8D\J	.	.	(16B-\	.	(16d/	.	16ff\L	p	.	16f\	-bi-	.	.	.	.	.	.
.	.	.	16d\JJ)	.	16f/JJ)	.	16gg\JJ	.	.	16g\	-a	.	.	.	.	.	.
=46	=46	=46	=46	=46	=46	=46	=46	=46	=46	=46	=46	=46	=46	=46	=46	=46	=46
!LO:TX:t=P:problem:mixed beam	!	!	!	!	!	!	!	!	!	!	!	!	!	!	!	!	!
8C\L	.	.	(16A\LL	.	(16c/LL	.	16ff\LL	.	4.ryy	16f\LL	me-	4.r	4.ryy	4.ryy	4.ryy	4.ryy	4.ryy
.	.	.	16c\)	.	16f/)	.	16ee-X\JJ	.	.	16e-X\JJ	.	.	.	.	.	.	.
8F\	.	.	(16A\	.	(16c/	.	8.ee-\L	.	.	8.e-\	-a	.	.	.	.	.	.
.	.	.	16c\)	.	16f/)	.	.	.	.	.	.	.	.	.	.	.	.
8BB-/J	.	.	(16B-\	.	(16d/	.	.	.	.	.	.	.	.	.	.	.	.
.	.	.	16d\JJ)	.	16f/JJ)	.	16dd\Jk	.	.	16d\	a-	.	.	.	.	.	.
=47	=47	=47	=47	=47	=47	=47	=47	=47	=47	=47	=47	=47	=47	=47	=47	=47	=47
!LO:TX:t=P:problem:mixed beam	!	!	!	!	!	!	!	!	!	!	!	!	!	!	!	!	!
8E-\L	.	.	(16c\LL	.	(16e-/LL	.	16dd\LL	.	4.ryy	16d\LL	-pe-	4.r	4.ryy	4.ryy	4.ryy	4.ryy	4.ryy
.	.	.	16e-\)	.	16g/)	.	16cc\	.	.	16c\	.	.	.	.	.	.	.
8F\	.	.	(16c\	.	(16e-/	.	(16ee-\	.	.	16e-\	.	.	.	.	.	.	.
.	.	.	16e-\)	.	16g/)JJ	.	16cc\	.	.	16c\JJ	.	.	.	.	.	.	.
!	!	!	!	!	!LO:LB:g=original	!	!	!	!	!	!	!	!	!	!	!	!
8FF/J	.	.	16f\	.	16d/LL	.	16b-\)	.	.	16B-\LL	-ri-	.	.	.	.	.	.
.	.	.	16f\JJ	.	16c/JJ	.	16a\JJ	.	.	16A\JJ	.	.	.	.	.	.	.
=48	=48	=48	=48	=48	=48	=48	=48	=48	=48	=48	=48	=48	=48	=48	=48	=48	=48
.	.	.	.	.	.	.	.	.	.	16qqB-/LL	.	.	.	.	.	.	.
.	.	.	.	.	.	.	.	.	.	16qqd/JJ	.	.	.	.	.	.	.
!LO:TX:t=P:problem:mixed beam	!	!	!	!	!	!	!	!	!	!	!	!	!	!	!	!	!
8BB-/L	.	.	8f\	.	8d/	.	8b-/	.	4.ryy	8c\	-es	4.r	4.ryy	4.ryy	4.ryy	4.ryy	4.ryy
8B-\J	.	.	8r	.	8r	.	8r	.	.	8r	.	.	.	.	.	.	.
8r	.	.	8r	.	8d/	.	8ff\	.	.	8f\	osſ	.	.	.	.	.	.
!	!	!	!	!	!	!	!LO:LB:g=original	!	!	!	!	!	!	!	!	!	!
=49	=49	=49	=49	=49	=49	=49	=49	=49	=49	=49	=49	=49	=49	=49	=49	=49	=49
*	*	*	*	*	*	*	*	*	*	*Xtuplet	*	*	*	*	*	*	*
8BB-/L	.	.	8f\	.	8d/	.	24ff\LL	.	4.ryy	24f\LL	.	4.r	4.ryy	4.ryy	4.ryy	4.ryy	4.ryy
.	.	.	.	.	.	.	24dd\	.	.	24d\	.	.	.	.	.	.	.
.	.	.	.	.	.	.	24ee-\JJ	.	.	24e-\JJ	.	.	.	.	.	.	.
8D/	.	.	16r	.	16r	.	24ff\LL	.	.	24f\LL	.	.	.	.	.	.	.
.	.	.	.	.	.	.	24ee-\	.	.	24e-\	.	.	.	.	.	.	.
.	.	.	16f'\LL	.	16d'/LL	.	.	.	.	.	.	.	.	.	.	.	.
.	.	.	.	.	.	.	24dd\JJ	.	.	24d\JJ	.	.	.	.	.	.	.
8BB-/J	.	.	16f'\	.	16d'/	.	24cc\LL	.	.	24c\LL	.	.	.	.	.	.	.
.	.	.	.	.	.	.	24b-\	.	.	24B-\	.	.	.	.	.	.	.
.	.	.	16f'\JJ	.	16d'/JJ	.	.	.	.	.	.	.	.	.	.	.	.
.	.	.	.	.	.	.	24a-X\JJ	.	.	24A-X\JJ	.	.	.	.	.	.	.
=50	=50	=50	=50	=50	=50	=50	=50	=50	=50	=50	=50	=50	=50	=50	=50	=50	=50
8E-\L	.	.	16g\KL	.	16e-/KL	.	16g\KL	.	4.ryy	(16G\	me-	4.r	4.ryy	4.ryy	4.ryy	4.ryy	4.ryy
.	.	.	8g\	.	8e-/	.	8b-\	.	.	8B-\	.	.	.	.	.	.	.
8G\	.	.	.	.	.	.	.	.	.	.	.	.	.	.	.	.	.
.	.	.	8g\	.	8e-/	.	8ee-\	.	.	(8d\)	-um	.	.	.	.	.	.
8E-\J	.	.	.	.	.	.	.	.	.	.	.	.	.	.	.	.	.
.	.	.	16g\Jk	.	16e-/Jk	.	16gg\Jk	.	.	16g\)	.	.	.	.	.	.	.
=51	=51	=51	=51	=51	=51	=51	=51	=51	=51	=51	=51	=51	=51	=51	=51	=51	=51
8BB-/L	.	.	8f\	.	8d/	.	24ff\LL	.	4.ryy	24f\LL	a-	4.r	4.ryy	4.ryy	4.ryy	4.ryy	4.ryy
.	.	.	.	.	.	.	24ee-\	.	.	24e-\	.	.	.	.	.	.	.
.	.	.	.	.	.	.	24dd\JJ	.	.	24d\JJ	.	.	.	.	.	.	.
!	!	!	!	!	!	!	!	!	!	!LO:LB:g=original	!	!	!	!	!	!	!
8D/	.	.	16r	.	16r	.	24dd\LL	.	.	24d\LL	-nun-	.	.	.	.	.	.
.	.	.	.	.	.	.	24cc\	.	.	24c\	.	.	.	.	.	.	.
.	.	.	16f'\LL	.	16d'/LL	.	.	.	.	.	.	.	.	.	.	.	.
.	.	.	.	.	.	.	24b-\JJ	.	.	24B-\JJ	.	.	.	.	.	.	.
8BB-/J	.	.	16f'\	.	16d'/	.	16b-\LL	.	.	16B-\LL	-ti-	.	.	.	.	.	.
.	.	.	16f'\JJ	.	16d'/JJ	.	16a-X\JJ	.	.	16A-X\JJ	.	.	.	.	.	.	.
!	!	!	!LO:LB:g=original	!	!	!	!	!	!	!	!	!	!	!	!	!	!
=52	=52	=52	=52	=52	=52	=52	=52	=52	=52	=52	=52	=52	=52	=52	=52	=52	=52
!LO:TX:t=P:problem:mixed beam	!	!	!LO:TX:t=P:problem:mixed beam	!	!	!	!LO:SIC:v:s=8a-/L	!	!	!	!	!	!	!	!	!	!
8E-\L	.	.	8f\L	.	8d/L	.	8a/L	.	4.ryy	8A\	-a-	4.r	4.ryy	4.ryy	4.ryy	4.ryy	4.ryy
8EE-/J	.	.	8B-/J	.	8e-/J	.	8g/J	.	.	8G/	-bit	.	.	.	.	.	.
8r	.	.	8r	.	8r	.	16r	.	.	16r	.	.	.	.	.	.	.
.	.	.	.	.	.	.	16gg\	.	.	16g\	an-	.	.	.	.	.	.
=53	=53	=53	=53	=53	=53	=53	=53	=53	=53	=53	=53	=53	=53	=53	=53	=53	=53
8C\L	.	.	8g\	.	8en/	.	24gg\LL	.	4.ryy	24g\LL	-nun-	4.r	4.ryy	4.ryy	4.ryy	4.ryy	4.ryy
.	.	.	.	.	.	.	24een\	.	.	24en\	.	.	.	.	.	.	.
.	.	.	.	.	.	.	24ff\JJ	.	.	24f\JJ	.	.	.	.	.	.	.
8En\	.	.	16r	.	16r	.	24gg\LL	.	.	24g\LL	.	.	.	.	.	.	.
.	.	.	.	.	.	.	24ff\	.	.	24f\	.	.	.	.	.	.	.
.	.	.	16g'\LL	.	16e'/LL	.	.	.	.	.	.	.	.	.	.	.	.
.	.	.	.	.	.	.	24ee\JJ	.	.	24en\JJ	.	.	.	.	.	.	.
8C\J	.	.	16g'\	.	16e'/	.	24dd\LL	.	.	24d\LL	-ti-	.	.	.	.	.	.
.	.	.	.	.	.	.	24cc\	.	.	24c\	.	.	.	.	.	.	.
.	.	.	16g'\JJ	.	16e'/JJ	.	.	.	.	.	.	.	.	.	.	.	.
.	.	.	.	.	.	.	24b-\JJ	.	.	24B-\JJ	.	.	.	.	.	.	.
!LO:LB:g=original	!	!	!	!	!	!	!	!	!	!	!	!	!	!	!	!	!
=54	=54	=54	=54	=54	=54	=54	=54	=54	=54	=54	=54	=54	=54	=54	=54	=54	=54
8F\L	.	.	16a\KL	.	16f/KL	.	16an\KL	.	4.ryy	16An\KL	-a-	4.r	4.ryy	4.ryy	4.ryy	4.ryy	4.ryy
.	.	.	8a\	.	8f/	.	8cc\	.	.	8c\	.	.	.	.	.	.	.
8A\	.	.	.	.	.	.	.	.	.	.	.	.	.	.	.	.	.
.	.	.	8a\	.	8f/	.	8ff\	.	.	8f\	.	.	.	.	.	.	.
8F\J	.	.	.	.	.	.	.	.	.	.	.	.	.	.	.	.	.
.	.	.	16a\Jk	.	16f/Jk	.	16aa\Jk	.	.	16a\Jk	.	.	.	.	.	.	.
=55	=55	=55	=55	=55	=55	=55	=55	=55	=55	=55	=55	=55	=55	=55	=55	=55	=55
!	!	!	!	!	!LO:SIC:v:s=8en/	!	!	!	!	!	!	!	!	!	!	!	!
8C\L	.	.	8g\	.	8e-/	.	24gg\LL	.	4.ryy	24g\LL	.	4.r	4.ryy	4.ryy	4.ryy	4.ryy	4.ryy
.	.	.	.	.	.	.	24ff\	.	.	24f\	.	.	.	.	.	.	.
!	!	!	!	!	!	!	!LO:SIC:v:s=24een\JJ	!	!	!	!	!	!	!	!	!	!
.	.	.	.	.	.	.	24ee-\JJ	.	.	24en\JJ	.	.	.	.	.	.	.
!	!	!	!	!	!	!	!LO:SIC:v:s=24een\LL	!	!	!	!	!	!	!	!	!	!
8En\	.	.	16r	.	16r	.	24ee-\LL	.	.	24e\LL	.	.	.	.	.	.	.
.	.	.	.	.	.	.	24dd\	.	.	24d\	.	.	.	.	.	.	.
!	!	!	!	!	!LO:SIC:v:s=16en'/LL	!	!	!	!	!	!	!	!	!	!	!	!
.	.	.	16g\LL	.	16e-'/LL	.	.	.	.	.	.	.	.	.	.	.	.
.	.	.	.	.	.	.	24cc\JJ	.	.	24c\JJ	.	.	.	.	.	.	.
!	!	!	!	!	!LO:SIC:v:s=16en'/	!	!	!	!	!	!	!	!	!	!	!	!
8C\J	.	.	16g\	.	16e-'/	.	16cc\LL	.	.	16c\LL	.	.	.	.	.	.	.
!	!	!	!	!	!LO:SIC:v:s=16en/JJ	!	!	!	!	!	!	!	!	!	!	!	!
.	.	.	16g\JJ	.	16e-'/JJ	.	16b-\JJ	.	.	16B-\JJ	.	.	.	.	.	.	.
=56	=56	=56	=56	=56	=56	=56	=56	=56	=56	=56	=56	=56	=56	=56	=56	=56	=56
!LO:TX:t=P:problem:mixed beam	!	!	!	!	!LO:SIC:v:s=8en/L	!	!	!	!	!	!	!	!	!	!	!	!
8F\L	.	.	8g\L	.	8e-/L	.	8b-\L	.	4.ryy	8B-\	.	4.r	4.ryy	4.ryy	4.ryy	4.ryy	4.ryy
8FF/J	.	.	8c/J	.	8f/J	.	8a\J	.	.	8A\	-bit	.	.	.	.	.	.
8r	.	.	8r	.	8r	.	16r	.	.	16r	.	.	.	.	.	.	.
.	.	.	.	.	.	.	32b-\LLL	.	.	32c\LLL	lau-	.	.	.	.	.	.
.	.	.	.	.	.	.	32cc\JJJ	.	.	32d\JJJ	.	.	.	.	.	.	.
=57	=57	=57	=57	=57	=57	=57	=57	=57	=57	=57	=57	=57	=57	=57	=57	=57	=57
!LO:TX:t=P:problem:mixed beam	!	!	!	!	!	!	!	!	!	!	!	!	!	!	!	!	!
8F\L	.	.	(16A/LL	.	16c/LL	.	24ee-X\LL	.	4.ryy	24e-X\LL	.	4.r	4.ryy	4.ryy	4.ryy	4.ryy	4.ryy
.	.	.	.	.	.	.	24ff\	.	.	24f\	.	.	.	.	.	.	.
.	.	.	16c/)	.	16f/	.	.	.	.	.	.	.	.	.	.	.	.
.	.	.	.	.	.	.	24ee-\JJ	.	.	24e-\JJ	.	.	.	.	.	.	.
!	!	!	!	!	!	!	!	!	!	!LO:LB:g=original	!	!	!	!	!	!	!
8FF/J	.	.	(16A/	.	16c/	.	8cc\	.	.	8c\	-dem	.	.	.	.	.	.
.	.	.	16c/)	.	16f/	.	.	.	.	.	.	.	.	.	.	.	.
!	!	!	!	!	!	!	!LO:LB:g=original	!	!	!	!	!	!	!	!	!	!
8r	.	.	(16A/	.	16c/	.	16r	.	.	16r	.	.	.	.	.	.	.
.	.	.	16c/JJ)	.	16f/JJ	.	16ee-\	.	.	16e-\	lau-	.	.	.	.	.	.
=58	=58	=58	=58	=58	=58	=58	=58	=58	=58	=58	=58	=58	=58	=58	=58	=58	=58
8B-\L	.	.	(16d/LL	.	(16B-/LL	.	24dd\LL	.	4.ryy	24d\LL	.	4.r	4.ryy	4.ryy	4.ryy	4.ryy	4.ryy
.	.	.	.	.	.	.	24ee-\	.	.	24e-\	.	.	.	.	.	.	.
.	.	.	16F/)	.	16f/)	.	.	.	.	.	.	.	.	.	.	.	.
.	.	.	.	.	.	.	24dd\JJ	.	.	24d\JJ	.	.	.	.	.	.	.
8F\	.	.	(16c/	.	(16e-X/	.	24cc\LL	.	.	24c\LL	.	.	.	.	.	.	.
.	.	.	.	.	.	.	24dd\	.	.	24d\	.	.	.	.	.	.	.
.	.	.	16F/)	.	16f/)	.	.	.	.	.	.	.	.	.	.	.	.
.	.	.	.	.	.	.	24cc\JJ	.	.	24c\JJ	.	.	.	.	.	.	.
8BB-\J	.	.	(16B-/	.	(16d/	.	16b-\LL	.	.	16B-\LL	.	.	.	.	.	.	.
.	.	.	16F/JJ)	.	16f/JJ)	.	16dd\JJ	.	.	16d\JJ	.	.	.	.	.	.	.
!	!	!	!	!	!LO:LB:g=original	!	!	!	!	!	!	!	!	!	!	!	!
=59	=59	=59	=59	=59	=59	=59	=59	=59	=59	=59	=59	=59	=59	=59	=59	=59	=59
!LO:TX:t=P:problem:mixed beam	!	!	!	!	!	!	!	!	!	!	!	!	!	!	!	!	!
8F\L	.	.	(16A/LL	.	(16c/LL	.	24ee-\LL	.	4.ryy	24e-\LL	.	4.r	4.ryy	4.ryy	4.ryy	4.ryy	4.ryy
.	.	.	.	.	.	.	24ff\	.	.	24f\	.	.	.	.	.	.	.
.	.	.	16c/)	.	16f/)	.	.	.	.	.	.	.	.	.	.	.	.
.	.	.	.	.	.	.	24ee-\JJ	.	.	24e-\JJ	.	.	.	.	.	.	.
8FF/J	.	.	(16A/	.	(16c/	.	8cc\	.	.	8c\	-dem	.	.	.	.	.	.
.	.	.	16c/)	.	16f/)	.	.	.	.	.	.	.	.	.	.	.	.
8r	.	.	(16A/	.	(16c/	.	16r	.	.	16r	.	.	.	.	.	.	.
.	.	.	16c/JJ)	.	16f/JJ)	.	16ee-\	.	.	16e-\	lau-	.	.	.	.	.	.
=60	=60	=60	=60	=60	=60	=60	=60	=60	=60	=60	=60	=60	=60	=60	=60	=60	=60
!LO:TX:t=P:problem:mixed beam	!	!	!LO:TX:t=P:problem:mixed beam	!	!LO:TX:t=P:problem:mixed beam	!	!	!	!	!	!	!	!	!	!	!	!
8BB-/L	.	.	(16d/LL	.	16B-/LL	.	24dd\LL	.	4.ryy	24d\LL	.	4.r	4.ryy	4.ryy	4.ryy	4.ryy	4.ryy
.	.	.	.	.	.	.	24ee-\	.	.	24e-\	.	.	.	.	.	.	.
.	.	.	16F/)	.	16f/	.	.	.	.	.	.	.	.	.	.	.	.
.	.	.	.	.	.	.	24dd\JJ	.	.	24d\JJ	.	.	.	.	.	.	.
8F\	.	.	(16c/	.	16e-/	.	24cc\LL	.	.	24c\LL	.	.	.	.	.	.	.
.	.	.	.	.	.	.	24dd\	.	.	24d\	.	.	.	.	.	.	.
.	.	.	16F/)	.	16f/	.	.	.	.	.	.	.	.	.	.	.	.
.	.	.	.	.	.	.	24cc\JJ	.	.	24c\JJ	.	.	.	.	.	.	.
8B-\J	.	.	(16B-/	.	16d/	.	16b-\LL	.	.	16B-\LL	-dem	.	.	.	.	.	.
.	.	.	16f\JJ)	.	16dd\JJ	.	16bb-\JJ	.	.	16f\JJ	.	.	.	.	.	.	.
=61	=61	=61	=61	=61	=61	=61	=61	=61	=61	=61	=61	=61	=61	=61	=61	=61	=61
.	.	.	.	.	.	.	8qqaa/	.	.	.	.	.	.	.	.	.	.
*	*	*	*	*	*tuplet	*	*	*	*	*	*	*	*	*	*	*	*
!LO:TX:t=P:problem:mixed beam	!	!	!	!	!LO:TUP:a:problem:klamra łukowa	!	!LO:N:vis=8	!	!	!	!	!	!	!	!	!	!
8E-\L	.	.	(16e-\LL	.	24ee-\LL	.	24gg\LL	.	4.ryy	24g\LL	tu-	4.r	4.ryy	4.ryy	4.ryy	4.ryy	4.ryy
.	.	.	.	.	24dd\	.	24ff\	.	.	24f\	.	.	.	.	.	.	.
.	.	.	16g\J)	.	.	.	.	.	.	.	.	.	.	.	.	.	.
.	.	.	.	.	24cc\JJ	.	24ee-\JJ	.	.	24e-\JJ	.	.	.	.	.	.	.
8F\	.	.	8f\	.	8b-\L	.	8dd\L	.	.	8d\	.	.	.	.	.	.	.
8FF/J	.	.	8f\J	.	8f\J	.	8cc\J	.	.	8c\	-am	.	.	.	.	.	.
=62	=62	=62	=62	=62	=62	=62	=62	=62	=62	=62	=62	=62	=62	=62	=62	=62	=62
8BB-/L	.	.	8f\L	.	8d/L	.	24b-\LL	.	4.ryy	24B-\LL	lau-	4.r	4.ryy	4.ryy	4.ryy	4.ryy	4.ryy
.	.	.	.	.	.	.	24dd\	.	.	24d\	.	.	.	.	.	.	.
.	.	.	.	.	.	.	24cc\JJ	.	.	24c\JJ	.	.	.	.	.	.	.
8BB-/	.	.	8f\	.	8d/	.	24b-\LL	.	.	24B-\LL	.	.	.	.	.	.	.
.	.	.	.	.	.	.	24dd\	.	.	24d\	.	.	.	.	.	.	.
.	.	.	.	.	.	.	24cc\JJ	.	.	24c\JJ	.	.	.	.	.	.	.
8BB-/J	.	.	8f\J	.	8d/J	.	24b-\LL	.	.	24B-\LL	.	.	.	.	.	.	.
.	.	.	.	.	.	.	24dd\	.	.	24d\	.	.	.	.	.	.	.
.	.	.	.	.	.	.	24cc\JJ	.	.	24c\JJ	.	.	.	.	.	.	.
=63	=63	=63	=63	=63	=63	=63	=63	=63	=63	=63	=63	=63	=63	=63	=63	=63	=63
8BB-/	.	.	8f\	.	8d/	.	16b-\LL|	.	4.ryy	16B-\LL	.	4.r	4.ryy	4.ryy	4.ryy	4.ryy	4.ryy
.	.	.	.	.	.	.	(32cc\L	.	.	32c\L	.	.	.	.	.	.	.
.	.	.	.	.	.	.	32dd\JJJ)	.	.	32d\JJJ	.	.	.	.	.	.	.
!	!	!	!	!	!	!	!	!	!	!LO:LB:g=original	!	!	!	!	!	!	!
8r	.	.	8r	.	8r	.	(32ee-\LLL	.	.	(32e-\LLL	.	.	.	.	.	.	.
.	.	.	.	.	.	.	32ff\	.	.	32f\	.	.	.	.	.	.	.
.	.	.	.	.	.	.	32gg\	.	.	32g\	.	.	.	.	.	.	.
.	.	.	.	.	.	.	32aa\JJJ)	.	.	32a\JJJ)	.	.	.	.	.	.	.
8BB-/	.	.	16r	.	16r	.	16bb-\LL	.	.	16b-\LL	-dem	.	.	.	.	.	.
.	.	.	16f\	.	16dd\	.	16ff\JJ	.	.	16f\JJ	.	.	.	.	.	.	.
!	!	!	!LO:LB:g=original	!	!	!	!	!	!	!	!	!	!	!	!	!	!
=64	=64	=64	=64	=64	=64	=64	=64	=64	=64	=64	=64	=64	=64	=64	=64	=64	=64
*	*	*	*	*	*Xtuplet	*	*	*	*	*	*	*	*	*	*	*	*
!LO:TX:t=P:problem:mixed beam	!	!	!	!	!	!	!	!	!	!	!	!	!	!	!	!	!
8E-\L	.	.	8g\L	.	24ee-\LL	.	24gg\LL	.	4.ryy	24g\LL	tu-	4.r	4.ryy	4.ryy	4.ryy	4.ryy	4.ryy
.	.	.	.	.	24dd\	.	24ff\	.	.	24f\	.	.	.	.	.	.	.
.	.	.	.	.	24cc\JJ	.	24ee-\JJ	.	.	24e-\JJ	.	.	.	.	.	.	.
8F\	.	.	8f\	.	8b-\L	.	8dd\L	.	.	8d\L	.	.	.	.	.	.	.
8FF/J	.	.	8f\J	.	8a\J	.	8cc\J	.	.	8c\J	.	.	.	.	.	.	.
!	!	!	!	!	!	!	!LO:LB:g=original	!	!	!	!	!	!	!	!	!	!
=65	=65	=65	=65	=65	=65	=65	=65	=65	=65	=65	=65	=65	=65	=65	=65	=65	=65
*Xtuplet	*	*	*	*	*tuplet	*	*	*	*	*	*	*	*	*	*	*	*
!	!	!	!LO:TUP:a:problem:klamra łukowa	!LO:DY:t=fort	!	!LO:DY:rj	!LO:TUP:a:problem:klamra łukowa	!LO:DY:a:t=for	!	!	!	!	!	!	!	!	!
24BB-/LL	.	f	24B-/LL	f	24b-\LL	f	24b-\LL	f	4.ryy	8B-\	-am	4.r	4.ryy	4.ryy	4.ryy	4.ryy	4.ryy
24D/	.	.	24d/	.	24dd\	.	24dd\	.	.	.	.	.	.	.	.	.	.
24C/JJ	.	.	24c/JJ	.	24cc\JJ	.	24cc\JJ	.	.	.	.	.	.	.	.	.	.
!	!	!	!	!	!LO:TX:t=P:problem:mixed beam	!	!LO:TX:t=P:problem:mixed beam	!	!	!	!	!	!	!	!	!	!
16BB-\LL|	.	.	16B-\LL|	.	16b-\LL	.	16b-\LL|	.	.	8r	.	.	.	.	.	.	.
16D\|	.	.	16d\|	.	16d/	.	16d/|	.	.	.	.	.	.	.	.	.	.
16E-\|	.	.	16e-\|	.	16e-/	.	16e-/|	.	.	8r	.	.	.	.	.	.	.
16En\JJ|	.	.	16en\JJ|	.	16en/JJ	.	16en/JJ|	.	.	.	.	.	.	.	.	.	.
=66	=66	=66	=66	=66	=66	=66	=66	=66	=66	=66	=66	=66	=66	=66	=66	=66	=66
*	*	*	*tuplet	*	*	*	*	*	*	*	*	*	*	*	*	*	*
!	!	!	!	!	!LO:TX:t=P:problem:mixed beam	!	!LO:TX:t=P:problem:mixed beam	!	!	!	!	!	!	!	!	!	!
!LO:TUP:a:problem:klamra łukowa	!	!	!LO:TUP:a:problem:klamra łukowa	!	!LO:TUP:a:problem:klamra łukowa	!	!LO:TUP:a:problem:klamra łukowa	!	!	!	!	!	!	!	!	!	!
24F\LL	.	.	24f\LL	.	24f/LL	.	24f/LL	.	4.ryy	4.r	.	4.r	4.ryy	4.ryy	4.ryy	4.ryy	4.ryy
24d\	.	.	24d\	.	24dd\	.	24dd\	.	.	.	.	.	.	.	.	.	.
24c\JJ	.	.	24c\JJ	.	24cc\JJ	.	24cc\JJ	.	.	.	.	.	.	.	.	.	.
!	!	!	!	!	!LO:TX:t=P:problem:mixed beam	!	!LO:TX:t=P:problem:mixed beam	!	!	!	!	!	!	!	!	!	!
16B-\LL|	.	.	16B-\LL|	.	16b-\LL	.	16b-\LL|>	.	.	.	.	.	.	.	.	.	.
16D\|	.	.	16d\|	.	16d/	.	16d/|	.	.	.	.	.	.	.	.	.	.
16E-X\|	.	.	16e-X\|	.	16e-X/	.	16e-X/|	.	.	.	.	.	.	.	.	.	.
16En\JJ|	.	.	16en\JJ|	.	16en/JJ	.	16en/JJ|	.	.	.	.	.	.	.	.	.	.
!LO:LB:g=original	!	!	!	!	!	!	!	!	!	!	!	!	!	!	!	!	!
=67	=67	=67	=67	=67	=67	=67	=67	=67	=67	=67	=67	=67	=67	=67	=67	=67	=67
8F;\	.	.	4e-;\	.	4f;/	.	4f;/	.	4.ryy	8F/	tu-	4.r	4.ryy	4.ryy	4.ryy	4.ryy	4.ryy
8r	.	.	.	.	.	.	.	.	.	4cT;\	.	.	.	.	.	.	.
!	!	!	!	!	!	!	!LO:TX:t=tr&colon;	!	!	!	!	!	!	!	!	!	!
8F\	.	.	8r	.	8r	ff	8cc\	.	.	.	.	.	.	.	.	.	.
=68	=68	=68	=68	=68	=68	=68	=68	=68	=68	=68	=68	=68	=68	=68	=68	=68	=68
*	*	*	*Xtuplet	*	*	*	*	*	*	*	*	*	*	*	*	*	*
!	!	!	!	!	!	!	!:	!	!	!	!	!	!	!	!	!	!
!	!	!	!	!	!	!	!	!LO:DY:a:t=for&colon;	!	!	!	!	!	!	!	!	!
8BB-/L	.	ff	24B-/LL	ff	24b-\LL	.	24b-\LL	f	4.ryy	8B-\	-am	4.r	4.ryy	4.ryy	4.ryy	4.ryy	4.ryy
.	.	.	24d/	.	24dd\	.	24dd\	.	.	.	.	.	.	.	.	.	.
.	.	.	24f/JJ	.	24ff\JJ	.	24ff\JJ	.	.	.	.	.	.	.	.	.	.
*	*	*	*	*	*Xtuplet	*	*	*	*	*	*	*	*	*	*	*	*
8D/	.	.	24b-\LL	.	24bb-\LL	.	24bb-\LL	.	.	8r	.	.	.	.	.	.	.
.	.	.	24a\	.	24aa\	.	24aa\	.	.	.	.	.	.	.	.	.	.
.	.	.	24g\JJ	.	24gg\JJ	.	24gg\JJ	.	.	.	.	.	.	.	.	.	.
8BB-/J	.	.	24f\LL	.	24ff\LL	.	24ff\LL	.	.	8r	.	.	.	.	.	.	.
.	.	.	24e-X\	.	24ee-X\	.	24ee-X\	.	.	.	.	.	.	.	.	.	.
.	.	.	24d\JJ	.	24dd\JJ	.	24dd\JJ	.	.	.	.	.	.	.	.	.	.
!	!	!	!	!	!LO:LB:g=original	!	!	!	!	!	!	!	!	!	!	!	!
=69	=69	=69	=69	=69	=69	=69	=69	=69	=69	=69	=69	=69	=69	=69	=69	=69	=69
8E-\	.	.	24g\LL	.	24gg\LL	.	24gg\LL	.	4.ryy	2.r	.	4.r	4.ryy	4.ryy	4.ryy	4.ryy	4.ryy
.	.	.	24f\	.	24ff\	.	24ff\	.	.	.	.	.	.	.	.	.	.
.	.	.	24e-\JJ	.	24ee-\JJ	.	24ee-\JJ	.	.	.	.	.	.	.	.	.	.
8r	.	.	24d\LL	.	24dd\LL	.	24dd\LL	.	.	.	.	.	.	.	.	.	.
.	.	.	24c\	.	24cc\	.	24cc\	.	.	.	.	.	.	.	.	.	.
.	.	.	24B-\JJ	.	24b-\JJ	.	24b-\JJ	.	.	.	.	.	.	.	.	.	.
8G\	.	.	24A/LL	.	24a/LL	.	24a/LL	.	.	.	.	.	.	.	.	.	.
.	.	.	24G/	.	24g/	.	24g/	.	.	.	.	.	.	.	.	.	.
.	.	.	24F/JJ	.	24f/JJ	.	24f/JJ	.	.	.	.	.	.	.	.	.	.
=70	=70	=70	=70	=70	=70	=70	=70	=70	=70	=70	=70	=70	=70	=70	=70	=70	=70
8F\L	.	.	24F/LL	.	24f/LL	.	24f/LL	.	4.ryy	.	.	4.r	4.ryy	4.ryy	4.ryy	4.ryy	4.ryy
.	.	.	24A/	.	24a/	.	24a/	.	.	.	.	.	.	.	.	.	.
.	.	.	24A/JJ	.	24a/JJ	.	24a/JJ	.	.	.	.	.	.	.	.	.	.
8A\	.	.	24A/LL	.	24a/LL	.	24a\LL	.	.	.	.	.	.	.	.	.	.
.	.	.	24c/	.	24cc/	.	24cc\	.	.	.	.	.	.	.	.	.	.
.	.	.	24c/JJ	.	24cc/JJ	.	24cc\JJ	.	.	.	.	.	.	.	.	.	.
8F\J	.	.	24c\LL	.	24cc\LL	.	24cc\LL	.	.	.	.	.	.	.	.	.	.
.	.	.	24f\	.	24ee-\	.	24ee-\	.	.	.	.	.	.	.	.	.	.
.	.	.	24f\JJ	.	24ee-\JJ	.	24ee-\JJ	.	.	.	.	.	.	.	.	.	.
=71	=71	=71	=71	=71	=71	=71	=71	=71	=71	=71	=71	=71	=71	=71	=71	=71	=71
8B-\L	.	.	24d\LL	.	24dd\LL	.	24dd\LL	.	4.ryy	4.r	.	4.r	4.ryy	4.ryy	4.ryy	4.ryy	4.ryy
.	.	.	24f\	.	24cc\	.	24ff\	.	.	.	.	.	.	.	.	.	.
.	.	.	24b-\JJ	.	24b-\JJ	.	24bb-\JJ	.	.	.	.	.	.	.	.	.	.
!	!	!	!	!	!	!	!LO:TX:a:t=Tempo Primo	!	!	!	!	!	!	!	!	!	!
8D\	.	.	8f\L	.	8d/L	.	8b-\L	.	.	.	.	.	.	.	.	.	.
8F\J	.	.	8f\J	.	8f/J	.	8cc\J	.	.	.	.	.	.	.	.	.	.
=72||	=72||	=72||	=72||	=72||	=72||	=72||	=72||	=72||	=72||	=72||	=72||	=72||	=72||	=72||	=72||	=72||	=72||
*M4/4	*	*	*M4/4	*	*M4/4	*	*M4/4	*	*M4/4	*M4/4	*	*M4/4	*M4/4	*M4/4	*M4/4	*M4/4	*M4/4
*met(c)	*	*	*met(c)	*	*met(c)	*	*met(c)	*	*met(c)	*met(c)	*	*met(c)	*met(c)	*met(c)	*met(c)	*met(c)	*met(c)
!LO:TX:a:t=Tempo Primo	!	!	!LO:TX:b:t=Dulce	!	!	!	!	!	!	!	!	!	!	!	!	!	!
!LO:TX:b:i:t=Dolce	!	!	!LO:TX:a:t=Tempo Primo	!	!LO:TX:a:t=Tempo Primo	!	!LO:TX:b:i:t=dolce	!	!	!LO:TX:a:t=Tempo primo	!	!LO:TX:a:t=Tempo primo	!	!	!	!	!
8r	.	.	16.d\LL	.	16.b-\LL	.	16.dd\LL	.	1ryy	00r	.	00r	1ryy	1ryy	1ryy	1ryy	1ryy
.	.	.	32e-\K	.	32cc\K	.	32ff\K	.	.	.	.	.	.	.	.	.	.
8BB-/L	.	.	16f\	.	16dd\	.	16ff\	.	.	.	.	.	.	.	.	.	.
.	.	.	16f\JJ	.	16dd\JJ	.	16ff\JJ	.	.	.	.	.	.	.	.	.	.
.	.	.	.	.	.	.	32qqgg/	.	.	.	.	.	.	.	.	.	.
!	!	!	!LO:LB:g=original	!	!	!	!	!	!	!	!	!	!	!	!	!	!
8D/	.	.	8f\L	.	8dd\L	.	8ff\L	.	.	.	.	.	.	.	.	.	.
8BB-/J	.	.	16e-\L	.	16cc\L	.	16ee-\L	.	.	.	.	.	.	.	.	.	.
.	.	.	16d\JJ	.	16b-\JJ	.	16dd\JJ	.	.	.	.	.	.	.	.	.	.
!	!	!	!	!	!	!	!LO:LB:g=original	!	!	!	!	!	!	!	!	!	!
8r	.	.	16.g\LL	.	16.ee-\LL	.	(16.gg\LL	.	.	.	.	.	.	.	.	.	.
.	.	.	32a\K	.	32ff\K	.	32aa\K)	.	.	.	.	.	.	.	.	.	.
8E-\L	.	.	16b-\	.	16gg\	.	16bb-\	.	.	.	.	.	.	.	.	.	.
.	.	.	16b-\JJ	.	16gg\JJ	.	16bb-\JJ	.	.	.	.	.	.	.	.	.	.
.	.	.	16qqcc/	.	.	.	8qqccc/	.	.	.	.	.	.	.	.	.	.
8G\	.	.	8b-\L	.	8gg\L	.	8bb-\L	.	.	.	.	.	.	.	.	.	.
8E-\J	.	.	16a\L	.	16ff\L	.	16aa\L	.	.	.	.	.	.	.	.	.	.
.	.	.	16g\JJ	.	16ee-\JJ	.	16gg\JJ	.	.	.	.	.	.	.	.	.	.
=73	=73	=73	=73	=73	=73	=73	=73	=73	=73	=73	=73	=73	=73	=73	=73	=73	=73
!LO:TX:t=P:problem:mixed beam	!	!	!	!	!	!	!	!	!	!	!	!	!	!	!	!	!
8D\L	.	.	8f\L	.	8dd\L	.	8ff\L	.	1ryy	.	.	.	1ryy	1ryy	1ryy	1ryy	1ryy
*	*	*	*tuplet	*	*tuplet	*	*	*	*	*	*	*	*	*	*	*	*
!	!	!	!LO:TUP:a:problem:klamra łukowa	!	!LO:TUP:a:problem:klamra łukowa	!	!	!	!	!	!	!	!	!	!	!	!
8E-\	.	.	24g\L	.	24ee-\L	.	24gg\L	.	.	.	.	.	.	.	.	.	.
.	.	.	24f\	.	24dd\	.	24ff\	.	.	.	.	.	.	.	.	.	.
.	.	.	24e-\JJ	.	24cc\JJ	.	24ee-\JJ	.	.	.	.	.	.	.	.	.	.
8F\	.	.	8f\L	.	8b-/L	.	8dd\L	.	.	.	.	.	.	.	.	.	.
8FF/J	.	.	8c\J	.	8f/J	.	8cc\J	.	.	.	.	.	.	.	.	.	.
4FF/	.	.	4e-\	.	4f/	.	4cc\	.	.	.	.	.	.	.	.	.	.
!	!	!	!	!	!	!	!LO:TX:t=P:problem:mixed beam	!	!	!	!	!	!	!	!	!	!
8BB-/	.	.	8f\	.	8d/L	.	8b-\L	.	.	.	.	.	.	.	.	.	.
8r	.	.	8r	.	8c/J	p	8e-/J	.	.	.	.	.	.	.	.	.	.
=74	=74	=74	=74	=74	=74	=74	=74	=74	=74	=74	=74	=74	=74	=74	=74	=74	=74
!	!	!	!	!	!	!	!	!LO:DY:a:t=p&colon;	!	!	!	!	!	!	!	!	!
8r	.	p	8r	.	16B-/LL	.	16d/LL	p	1ryy	.	.	.	1ryy	1ryy	1ryy	1ryy	1ryy
.	.	.	.	.	16c/	.	(16e-/	.	.	.	.	.	.	.	.	.	.
8BB-/L	.	.	8f\L	.	16d/	.	16f/	.	.	.	.	.	.	.	.	.	.
.	.	.	.	.	16d/JJ	.	16f/JJ)	.	.	.	.	.	.	.	.	.	.
8D/	.	.	8f\	.	8d/L	.	8f/L	.	.	.	.	.	.	.	.	.	.
8BB-/J	.	.	8f\J	.	16c/L	.	16e-/L	.	.	.	.	.	.	.	.	.	.
.	.	.	.	.	16B-/JJ	.	16d/JJ	.	.	.	.	.	.	.	.	.	.
8r	.	.	8r	.	16e-/LL	.	(16g/LL	.	.	.	.	.	.	.	.	.	.
.	.	.	.	.	16f/	.	16a/	.	.	.	.	.	.	.	.	.	.
8E-\L	.	.	8B-/L	.	16g/	.	16b-/	.	.	.	.	.	.	.	.	.	.
.	.	.	.	.	16g/JJ	.	16b-/JJ)	.	.	.	.	.	.	.	.	.	.
8G\	.	.	8B-/	.	8g/L	.	8b-/L|	.	.	.	.	.	.	.	.	.	.
8E-\J	.	.	8B-/J	.	16f/L	.	(16a/L	.	.	.	.	.	.	.	.	.	.
.	.	.	.	.	16e-/JJ	.	16g/JJ)	.	.	.	.	.	.	.	.	.	.
=75	=75	=75	=75	=75	=75	=75	=75	=75	=75	=75	=75	=75	=75	=75	=75	=75	=75
!LO:TX:t=P:problem:mixed beam	!	!	!LO:TX:t=P:problem:mixed beam	!	!	!	!	!	!	!	!	!	!	!	!	!	!
8D\L	.	.	8B-/L	.	8d/L	.	16f/LL	.	1ryy	.	.	.	1ryy	1ryy	1ryy	1ryy	1ryy
.	.	.	.	.	.	.	16b-/JJ	.	.	.	.	.	.	.	.	.	.
*	*	*	*	*	*	*	*tuplet	*	*	*	*	*	*	*	*	*	*
!	!	!	!	!	!LO:TUP:b:problem:klamra łukowa	!	!LO:TUP:b:problem:klamra łukowa	!	!	!	!	!	!	!	!	!	!
8E-\	.	.	8e-\	.	24e-/L	.	24g/LL	.	.	.	.	.	.	.	.	.	.
.	.	.	.	.	24d/	.	24f/	.	.	.	.	.	.	.	.	.	.
.	.	.	.	.	24c/JJ	.	24e-/JJ	.	.	.	.	.	.	.	.	.	.
!	!	!	!	!	!LO:LB:g=original	!	!	!	!	!	!	!	!	!	!	!	!
8F\	.	.	8f\	.	8B-/L	.	8d/L	.	.	.	.	.	.	.	.	.	.
8FF/J	.	.	8f\J	.	8A/J	.	8c/J	.	.	.	.	.	.	.	.	.	.
!	!	!	!	!	!LO:TX:t=P:problem:mixed beam	!	!	!LO:DY:a:t=f&colon;	!	!	!	!	!	!	!	!	!
4BB-/	.	.	8.f\L	.	8.d/L	.	8.b-\L	f	.	.	.	.	.	.	.	.	.
.	.	.	16f\K	.	16b-\Jk	.	16dd\Jk	.	.	.	.	.	.	.	.	.	.
!	!	!	!	!	!LO:TX:t=P:problem:mixed beam	!	!	!	!	!	!	!	!	!	!	!	!
8r	.	.	8f\	.	16dd\LL	.	16ff\LL	.	.	.	.	.	.	.	.	.	.
.	.	.	.	.	16cc\	.	16ee-\	.	.	.	.	.	.	.	.	.	.
!LO:LB:g=original	!	!	!	!	!	!	!	!	!	!	!	!	!	!	!	!	!
8F\	.	.	8c\J	.	16f/	.	16cc\	.	.	.	.	.	.	.	.	.	.
.	.	.	.	.	16e-/JJ	.	16a\JJ	.	.	.	.	.	.	.	.	.	.
=76	=76	=76	=76	=76	=76	=76	=76	=76	=76	=76	=76	=76	=76	=76	=76	=76	=76
4F\	.	.	4c\	.	4e-/	.	4a/	.	2ryy	4r	.	2r	2ryy	2ryy	2ryy	2ryy	2ryy
8BB-/	.	.	8f\	.	8d/	.	8b-/	.	.	8r	.	.	.	.	.	.	.
8r	.	.	8r	.	16B-/LL	p	16dd\LL	.	.	16d\LL	do	.	.	.	.	.	.
!LO:TX:b:t=Da Capo	!	!	!LO:TX:b:t=DaCapo Del Sigl&colon;	!	!LO:TX:b:i:t=Da Capo Del Signo finis	!	!LO:TX:b:i:t=DaCapo&colon;del\nSeql&colon;	!	!	!LO:TX:b:i:t=Da Capo\ndal Segno.	!	!LO:TX:b:i:t=Dal Segno Da Capo	!	!	!	!	!
!	!	!	!	!	!	!	!LO:TX:b:t=Volti&colon;	!	!	!	!	!	!	!	!	!	!
.	.	.	.	.	16c/JJ	.	16ee-\JJ	.	.	16e-\JJ	.	.	.	.	.	.	.
!LO:TX:t=[segno]	!	!	!LO:TX:t=[segno]	!	!LO:TX:t=[segno]	!	!LO:TX:t=[segno]	!	!	!LO:TX:t=[segno]	!	!LO:TX:t=[segno]	!	!	!	!	!
==	==	==	==	==	==	==	==	==	==	==	==	==	==	==	==	==	==
*-	*-	*-	*-	*-	*-	*-	*-	*-	*-	*-	*-	*-	*-	*-	*-	*-	*-
!!!system-decoration: [(g1)][(g2)][(g3)][(g4)]s12
!!!RDF**kern: > = above
!!!RDF**kern: | = vertical stroke
!!!ENC: Marcin Jachim
!!!END: 2020-11-01
!!!ENC: Marta Lawrence
!!!END: 2022-04-11
